!!!!SEGMENT: pl-sa--12-a-i-12_ruth-christian-joseph--erat-vir-domini.krn
!!!cenid: 17xx:548
!!!COM: Ruth, Christian Joseph
!!!COM-rismid: pe41010076
!!!CDT:
!!!CNT:
!!!OTL: Erat vir Domini
!!!PDT:
!!!AGN: Sacred
!!!SMS-siglum: PL-SA
!!!SMS-shelfmark: 12/A I 12
!!!SMS-shelfwork: W
!!!SMS-variant:
!!!SMS-altvar:
!!!NIFC-rismid: 1001030083
!!!URL-scan: http://bc.bdsandomierz.pl/dlibra/publication/1278/edition/1246/content
!!!ONB-nifc:
**kern	**fba	**kern	**dynam	**kern	**dynam	**kern	**text	**kern	**text	**kern	**text
*part6	*	*part5	*part5	*part4	*part4	*part3	*part3	*part2	*part2	*part1	*part1
*staff6	*	*staff5	*	*staff4	*	*staff3	*staff3	*staff2	*staff2	*staff1	*staff1
*group3	*	*group2	*	*group2	*	*group1	*	*group1	*	*group1	*
*Iempty	*	*Ivioln	*	*Ivioln	*	*Iempty	*	*Ialto	*	*Ivox	*
*I"Fundamento Generali	*	*I"Violino Secundo	*	*I"Violino Primo	*	*I"Baſso	*	*I"Alto	*	*I"Canto	*
*I'B.C.	*	*I'Vl-no II	*	*I'Vl-no I	*	*I'B	*	*I'A	*	*I'C	*
*clefF4	*	*clefG2	*	*clefG2	*	*clefF4	*	*clefC3	*	*clefC1	*
*k[f#c#]	*	*k[f#c#]	*	*k[f#c#]	*	*k[f#c#]	*	*k[f#c#]	*	*k[f#c#]	*
*D:	*	*D:	*	*D:	*	*D:	*	*D:	*	*D:	*
*M4/4	*	*M4/4	*	*M4/4	*	*M4/4	*	*M4/4	*	*M4/4	*
=1	=1	=1	=1	=1	=1	=1	=1	=1	=1	=1	=1
*	*	*	*above	*	*above	*	*	*	*	*	*
!LO:TX:a:t=Allo	!	!LO:TX:a:t=Allo	!	!LO:TX:a:t=Allo	!	!LO:TX:a:t=Allo:	!	!LO:TX:a:t=Allo	!	!LO:TX:a:t=Allo	!
!LO:TX:b:t=Eras vir Domini	!	!LO:TX:b:t=Eras vir Domini	!	!LO:TX:b:t=Eras vir Domini	!	!	!	!	!	!LO:TX:a:t-problem:krzyżyk cis oktawę wyżej	!
8r	.	8r	.	8r	.	00r	.	00r	.	00r	.
8D`\L	.	8d/L	.	8d/L	.	.	.	.	.	.	.
8F#`\	.	8f#/	.	8f#/	.	.	.	.	.	.	.
8A`\J	.	8a/J	.	8a/J	.	.	.	.	.	.	.
8D\L	.	8dd\	.	8dd\	.	.	.	.	.	.	.
8D\	.	4ff#\	.	4aa\	.	.	.	.	.	.	.
8F#\	6	.	.	.	.	.	.	.	.	.	.
!	!	!LO:TX:a:t=problem: mixed beam	!	!	!	!	!	!	!	!	!
8A\J	.	16cc#\LL	.	16ee\LL	.	.	.	.	.	.	.
.	.	16e/JJ	.	16cc#\JJ	.	.	.	.	.	.	.
=2	=2	=2	=2	=2	=2	=2	=2	=2	=2	=2	=2
8D\L	.	8f#/L	.	16dd\LL	.	.	.	.	.	.	.
.	.	.	.	16a\	.	.	.	.	.	.	.
8G\	3	16g/L	.	16b\	.	.	.	.	.	.	.
.	.	16e/JJ	.	16g\JJ	.	.	.	.	.	.	.
8F#\	3	16f#/LL	.	16a/LL	.	.	.	.	.	.	.
.	.	16d/	.	16f#/	.	.	.	.	.	.	.
8E\J	3	16e/	.	16g/	.	.	.	.	.	.	.
.	.	16c#/JJ	.	16e/JJ	.	.	.	.	.	.	.
*	*	*	*	*Xtuplet	*	*	*	*	*	*	*
8D\L	.	8d/L	.	(24f#/LL	.	.	.	.	.	.	.
.	.	.	.	24g/	.	.	.	.	.	.	.
.	.	.	.	24a/JJ)	.	.	.	.	.	.	.
8E\	.	8c#/	.	(24g/LL	.	.	.	.	.	.	.
.	.	.	.	24a/	.	.	.	.	.	.	.
.	.	.	.	24b/JJ)	.	.	.	.	.	.	.
8F#\	.	8d/	.	(24a\LL	.	.	.	.	.	.	.
.	.	.	.	24b\	.	.	.	.	.	.	.
.	.	.	.	24cc#\JJ)	.	.	.	.	.	.	.
!	!	!	!	!LO:TX:a:t=problem: brak oznaczenia trioli	!	!	!	!	!	!	!
8G\J	.	8d/J	.	24b\LL	.	.	.	.	.	.	.
.	.	.	.	24cc#\	.	.	.	.	.	.	.
.	.	.	.	24dd\JJ	.	.	.	.	.	.	.
=3	=3	=3	=3	=3	=3	=3	=3	=3	=3	=3	=3
!	!	!LO:TX:a:t=problem: mixed beam	!	!	!	!	!	!	!	!	!
8A\L	.	8e/L	.	(24cc#\LL	.	.	.	.	.	.	.
.	.	.	.	24b\	.	.	.	.	.	.	.
.	.	.	.	24a\)	.	.	.	.	.	.	.
8c#\	.	8a/	.	16ee'\	.	.	.	.	.	.	.
.	.	.	.	16ee'\JJ	.	.	.	.	.	.	.
8A\	.	8e/	.	(24cc#\LL	.	.	.	.	.	.	.
.	.	.	.	24b\	.	.	.	.	.	.	.
.	.	.	.	24a\JJ)	.	.	.	.	.	.	.
8c#\J	.	8ee\J	.	16gg'\LL	.	.	.	.	.	.	.
.	.	.	.	16gg'\JJ	.	.	.	.	.	.	.
!LO:TX:a:t=problem: mixed beam	!	!	!	!	!	!	!	!	!	!	!
8d\L	.	8a\L	.	(24ff#\LL	.	.	.	.	.	.	.
.	.	.	.	24ee\	.	.	.	.	.	.	.
.	.	.	.	24dd\JJ)	.	.	.	.	.	.	.
8D/	.	8ff#\	.	16aa'\LL	.	.	.	.	.	.	.
.	.	.	.	16aa'\JJ	.	.	.	.	.	.	.
8F#/	.	8a\	.	(24ff#\LL	.	.	.	.	.	.	.
.	.	.	.	24ee\	.	.	.	.	.	.	.
.	.	.	.	24dd\JJ)	.	.	.	.	.	.	.
8G/J	.	8dd\J	.	16bb'\LL	.	.	.	.	.	.	.
.	.	.	.	16bb'\JJ	.	.	.	.	.	.	.
=4	=4	=4	=4	=4	=4	=4	=4	=4	=4	=4	=4
8r	.	8r	.	16e/LL	.	.	.	.	.	.	.
.	.	.	.	16e/	.	.	.	.	.	.	.
!LO:TX:a:t=problem: mixed beam	!	!	!	!	!	!	!	!	!	!	!
8A\L	.	8cc#\L	.	16e/	.	.	.	.	.	.	.
.	.	.	.	16e/JJ	.	.	.	.	.	.	.
8A\	.	8cc#\	.	(24c#/LL	.	.	.	.	.	.	.
.	.	.	.	24d/	.	.	.	.	.	.	.
.	.	.	.	24e/JJ)	.	.	.	.	.	.	.
8AA/J	.	8cc#\J	.	16A'/LL	.	.	.	.	.	.	.
.	.	.	.	16A'/JJ	.	.	.	.	.	.	.
!	!	!	!	!LO:LB:g=original	!	!	!	!	!	!	!
8r	.	8r	.	16f#/LL	.	.	.	.	.	.	.
.	.	.	.	16f#/	.	.	.	.	.	.	.
!LO:TX:a:t=problem: mixed beam	!	!	!	!	!	!	!	!	!	!	!
8A\L	6 4	8dd\L	.	16f#/	.	.	.	.	.	.	.
.	.	.	.	16f#/JJ	.	.	.	.	.	.	.
8A\	.	8dd\	.	(24d/LL	.	.	.	.	.	.	.
.	.	.	.	24e/	.	.	.	.	.	.	.
.	.	.	.	24f#/JJ)	.	.	.	.	.	.	.
8AA/J	.	8dd\J	.	16A/LL	.	.	.	.	.	.	.
.	.	.	.	16A/JJ	.	.	.	.	.	.	.
=5	=5	=5	=5	=5	=5	=5	=5	=5	=5	=5	=5
8r	.	16ee\LL	.	(24gg\LL	.	00r	.	00r	.	00r	.
.	.	.	.	24ff#\	.	.	.	.	.	.	.
.	.	16cc#\	.	.	.	.	.	.	.	.	.
.	.	.	.	24ee\JJ)	.	.	.	.	.	.	.
8A\L	.	16ee\	.	(24gg\LL	.	.	.	.	.	.	.
.	.	.	.	24ff#\	.	.	.	.	.	.	.
.	.	16cc#\JJ	.	.	.	.	.	.	.	.	.
.	.	.	.	24ee\JJ)	.	.	.	.	.	.	.
8c#\	.	8cc#\L	.	16a'/LL	.	.	.	.	.	.	.
.	.	.	.	16a'/	.	.	.	.	.	.	.
8A\J	.	8cc#\J	.	16a/	.	.	.	.	.	.	.
.	.	.	.	16a'/JJ	.	.	.	.	.	.	.
!	!	!	!	!LO:TX:a:t=problem: brak oznaczenia trioli	!	!	!	!	!	!	!
8r	.	16ff#\LL	.	24aa\LL	.	.	.	.	.	.	.
.	.	.	.	24gg\	.	.	.	.	.	.	.
.	.	16dd\	.	.	.	.	.	.	.	.	.
.	.	.	.	24ff#\JJ	.	.	.	.	.	.	.
!	!	!	!	!LO:TX:a:t=problem: brak oznaczenia trioli	!	!	!	!	!	!	!
8D\L	.	16ff#\	.	24aa\LL	.	.	.	.	.	.	.
.	.	.	.	24gg\	.	.	.	.	.	.	.
.	.	16dd\JJ	.	.	.	.	.	.	.	.	.
.	.	.	.	24ff#\JJ	.	.	.	.	.	.	.
8F#\	6	16d/LL	.	16a'/LL	.	.	.	.	.	.	.
.	.	16f#/	.	16a'/	.	.	.	.	.	.	.
8D\J	.	16a/	.	16a'/	.	.	.	.	.	.	.
.	.	16dd/JJ	.	16a'/JJ	.	.	.	.	.	.	.
!	!	!LO:LB:g=original	!	!	!	!	!	!	!	!	!
=6	=6	=6	=6	=6	=6	=6	=6	=6	=6	=6	=6
8G\L	3	8d/L	.	(24b\LL	.	.	.	.	.	.	.
.	.	.	.	24a\	.	.	.	.	.	.	.
.	.	.	.	24b\JJ)	.	.	.	.	.	.	.
8A\	3	8c#/	.	(24cc#\LL	.	.	.	.	.	.	.
.	.	.	.	24b\	.	.	.	.	.	.	.
.	.	.	.	24cc#\JJ)	.	.	.	.	.	.	.
8B\	6	8a/	.	(24dd\LL	.	.	.	.	.	.	.
.	.	.	.	24cc#\	.	.	.	.	.	.	.
.	.	.	.	24dd\JJ)	.	.	.	.	.	.	.
8c#\J	6 5	8g/J	.	(24ee\LL	.	.	.	.	.	.	.
.	.	.	.	24dd\	.	.	.	.	.	.	.
.	.	.	.	24ee\JJ)	.	.	.	.	.	.	.
!LO:LB:g=original	!	!	!	!	!	!	!	!	!	!	!
8d\L	.	8a/L	.	(16ff#\LL	.	.	.	.	.	.	.
.	.	.	.	16dd\)	.	.	.	.	.	.	.
8e\	.	8e/	.	(16gg\	.	.	.	.	.	.	.
.	.	.	.	16ee\JJ)	.	.	.	.	.	.	.
8d\	.	8a/	.	16ff#\LL	.	.	.	.	.	.	.
.	.	.	.	(16dd\	.	.	.	.	.	.	.
8G\J	.	8b/J	.	16cc#\)	.	.	.	.	.	.	.
.	.	.	.	16dd\JJ	.	.	.	.	.	.	.
=7	=7	=7	=7	=7	=7	=7	=7	=7	=7	=7	=7
!	!	!	!	!LO:TX:a:t=problem: mixed beam	!	!	!	!	!	!	!
8A\L	.	8cc#\L	.	16ee\LL	.	.	.	.	.	.	.
.	.	.	.	16a/	.	.	.	.	.	.	.
8B\	.	16cc#\L	.	16a/	.	.	.	.	.	.	.
.	.	16dd\JJ	.	16a/JJ	.	.	.	.	.	.	.
8c#\	.	8ee\L	.	16a\LL	.	.	.	.	.	.	.
.	.	.	.	(16ee\	.	.	.	.	.	.	.
8A\J	.	8cc#\J	.	16dd\	.	.	.	.	.	.	.
.	.	.	.	16ee\JJ)	.	.	.	.	.	.	.
8D\L	.	8a/L	.	(16ff#\LL	.	.	.	.	.	.	.
.	.	.	.	16dd\)	.	.	.	.	.	.	.
8E\	.	8e/	.	(16gg\	.	.	.	.	.	.	.
.	.	.	.	16ee\JJ)	.	.	.	.	.	.	.
8D\	.	8a/	.	16ff#`\LL	.	.	.	.	.	.	.
.	.	.	.	(16dd\	.	.	.	.	.	.	.
8G\J	.	8b/J	.	16cc#\	.	.	.	.	.	.	.
.	.	.	.	16dd\JJ)	.	.	.	.	.	.	.
!	!	!	!	!LO:LB:g=original	!	!	!	!	!	!	!
=8	=8	=8	=8	=8	=8	=8	=8	=8	=8	=8	=8
!	!	!	!	!LO:TX:a:t=problem: mixed beam	!	!	!	!	!	!	!
8A\L	.	8cc#\L	.	8ee\L	.	.	.	.	.	.	.
16c#\L	.	16ee\L	.	8a/J	.	.	.	.	.	.	.
16B\JJ	.	16dd\JJ	.	.	.	.	.	.	.	.	.
8A\L	.	8cc#\L	.	16r	.	.	.	.	.	.	.
.	.	.	.	16a\LL	.	.	.	.	.	.	.
8G\J	.	8b\J	.	16b\	.	.	.	.	.	.	.
.	.	.	.	16cc#\JJ	.	.	.	.	.	.	.
!	!	!	!	!LO:TX:a:t=problem: mixed beam	!	!	!	!	!	!	!
8F#\L	6	8a/L	.	16dd\LL	.	.	.	.	.	.	.
.	.	.	.	16a/	.	.	.	.	.	.	.
8F#\	.	8a/	.	16f#/	.	.	.	.	.	.	.
.	.	.	.	16a/JJ	.	.	.	.	.	.	.
!	!	!	!	!LO:TX:a:t=problem: mixed beam	!	!	!	!	!	!	!
8F#\	.	8a/	.	16d/LL	.	.	.	.	.	.	.
.	.	.	.	16ccn\	.	.	.	.	.	.	.
8F#\J	.	8a/J	.	16b\	.	.	.	.	.	.	.
.	.	.	.	16a\JJ	.	.	.	.	.	.	.
=9	=9	=9	=9	=9	=9	=9	=9	=9	=9	=9	=9
8G\L	.	8b\L	.	(24b/LL	.	00r	.	00r	.	00r	.
.	.	.	.	24a/	.	.	.	.	.	.	.
.	.	.	.	24g/JJ)	.	.	.	.	.	.	.
16B\L	.	16dd\L	.	4g/	.	.	.	.	.	.	.
16A\JJ	.	16cc#\JJ	.	.	.	.	.	.	.	.	.
8Gn\L	.	8b/L	.	.	.	.	.	.	.	.	.
!	!	!	!	!LO:TX:a:t=problem: brak oznaczenia trioli	!	!	!	!	!	!	!
8F#\J	.	8a/J	.	24b\LL	.	.	.	.	.	.	.
.	.	.	.	24cc#\	.	.	.	.	.	.	.
.	.	.	.	24dd\JJ	.	.	.	.	.	.	.
8G\L	.	8b/L	.	16ee\LL	.	.	.	.	.	.	.
.	.	.	.	16b\	.	.	.	.	.	.	.
8G\	.	8b/	.	16gn\	.	.	.	.	.	.	.
.	.	.	.	16b\JJ	.	.	.	.	.	.	.
!	!	!	!	!LO:TX:a:t=problem: mixed beam	!	!	!	!	!	!	!
8G\	.	8b/	.	16e/LL	.	.	.	.	.	.	.
.	.	.	.	16dd\	.	.	.	.	.	.	.
8G\J	.	8b/J	.	16cc#\	.	.	.	.	.	.	.
.	.	.	.	16b\JJ	.	.	.	.	.	.	.
=10	=10	=10	=10	=10	=10	=10	=10	=10	=10	=10	=10
!	!	!LO:TX:a:t=problem: mixed beam	!	!LO:TX:a:t=problem: brak oznaczenia trioli	!	!	!	!	!	!	!
8r	.	8e/L	.	24cc#\LL	.	.	.	.	.	.	.
.	.	.	.	24b\	.	.	.	.	.	.	.
.	.	.	.	24a\JJ	.	.	.	.	.	.	.
!LO:TX:a:t=problem: mixed beam	!	!	!	!	!	!	!	!	!	!	!
8A\L	.	8cc#\	.	4a/	.	.	.	.	.	.	.
8AA/	.	8cc#\	.	.	.	.	.	.	.	.	.
8A\J	.	8ff#\J	.	8aa\	.	.	.	.	.	.	.
8r	.	16ff#\LL	.	(24aa\LL	.	.	.	.	.	.	.
.	.	.	.	24gg\	.	.	.	.	.	.	.
.	.	16dd\	.	.	.	.	.	.	.	.	.
.	.	.	.	24ff#\JJ)	.	.	.	.	.	.	.
!LO:TX:a:t=problem: mixed beam	!	!	!	!	!	!	!	!	!	!	!
8A\L	.	16ff#\	.	16aa'\LL	.	.	.	.	.	.	.
.	.	16ff#\JJ	.	16aa'\JJ	.	.	.	.	.	.	.
!	!	!	!	!LO:TX:a:t=problem: mixed beam	!	!	!	!	!	!	!
8AA/	.	16ff#\LL	.	16a/LL	.	.	.	.	.	.	.
.	.	16ff#\	.	16aa\	.	.	.	.	.	.	.
8A\J	.	16ee\	.	16gg\	.	.	.	.	.	.	.
.	.	16dd\JJ	.	16ff#\JJ	.	.	.	.	.	.	.
=11	=11	=11	=11	=11	=11	=11	=11	=11	=11	=11	=11
8r	.	16ee\LL	.	(24gg\LL	.	.	.	.	.	.	.
.	.	.	.	24ff#\	.	.	.	.	.	.	.
.	.	16cc#\	.	.	.	.	.	.	.	.	.
.	.	.	.	24ee\JJ)	.	.	.	.	.	.	.
8AA/L	.	16ee\	.	16gg'\LL	.	.	.	.	.	.	.
.	.	16ee\JJ	.	16gg'\JJ	.	.	.	.	.	.	.
!	!	!	!	!LO:TX:a:t=problem: mixed beam	!	!	!	!	!	!	!
8AA/	.	16ee\LL	.	16a/LL	.	.	.	.	.	.	.
.	.	16ee\	.	16gg\	.	.	.	.	.	.	.
8AA/J	.	16dd\	.	16ff#\	.	.	.	.	.	.	.
.	.	16cc#\JJ	.	16ee\JJ	.	.	.	.	.	.	.
!	!	!LO:LB:g=original	!	!	!	!	!	!	!	!	!
8r	.	16dd\LL	.	(24ff#\LL	.	.	.	.	.	.	.
.	.	.	.	24ee\	.	.	.	.	.	.	.
.	.	16a\	.	.	.	.	.	.	.	.	.
.	.	.	.	24dd\JJ)	.	.	.	.	.	.	.
!LO:TX:a:t=problem: mixed beam	!	!	!	!	!	!	!	!	!	!	!
8A\L	6 4	16dd\	.	16ff#\LL	.	.	.	.	.	.	.
.	.	16dd\JJ	.	16ff#\JJ	.	.	.	.	.	.	.
8A\	.	16a\LL	.	16a\LL	.	.	.	.	.	.	.
.	.	16dd\	.	16ff#\	.	.	.	.	.	.	.
8AA/J	.	16cc#\	.	16ee\	.	.	.	.	.	.	.
.	.	16b\JJ	.	16dd\JJ	.	.	.	.	.	.	.
!	!	!	!	!LO:LB:g=original	!	!	!	!	!	!	!
=12	=12	=12	=12	=12	=12	=12	=12	=12	=12	=12	=12
8r	.	8e/L	.	(24cc#\LL	.	.	.	.	.	.	.
.	.	.	.	24b\	.	.	.	.	.	.	.
.	.	.	.	24a\JJ)	.	.	.	.	.	.	.
!LO:TX:a:t=problem: mixed beam	!	!	!	!	!	!	!	!	!	!	!
8A\L	.	8c#/	.	4gg\	.	.	.	.	.	.	.
8A\	.	8d/	.	.	.	.	.	.	.	.	.
8AA/J	.	8e/J	.	24gg\LL	.	.	.	.	.	.	.
.	.	.	.	24ff#\	.	.	.	.	.	.	.
.	.	.	.	24ee\JJ	.	.	.	.	.	.	.
!LO:LB:g=original	!	!	!	!	!	!	!	!	!	!	!
8D\L	.	8a/L	.	8ff#\L	.	.	.	.	.	.	.
8F#\	.	8a/	.	8dd\	.	.	.	.	.	.	.
8G\	.	8b/	.	8ee\	.	.	.	.	.	.	.
8A\J	.	8e/J	.	8cc#\J	.	.	.	.	.	.	.
=13	=13	=13	=13	=13	=13	=13	=13	=13	=13	=13	=13
!	!	!	!	!LO:TX:a:t=problem: mixed beam	!	!	!	!	!	!	!
8D\L	.	8f#/L	.	8dd\L	.	0r	.	00r	.	00r	.
8D`\	.	8d/	.	8d/	.	.	.	.	.	.	.
8F#`\	.	8f#/	.	8f#/	.	.	.	.	.	.	.
8A`\J	.	8a/J	.	8a/J	.	.	.	.	.	.	.
8D\L	.	8dd\	.	8dd\	.	.	.	.	.	.	.
8D\	.	4ff#\	.	4aa\	.	.	.	.	.	.	.
8F#\	.	.	.	.	.	.	.	.	.	.	.
8A\J	.	8cc#\	.	16ee\LL	.	.	.	.	.	.	.
.	.	.	.	16cc#\JJ	.	.	.	.	.	.	.
=14	=14	=14	=14	=14	=14	=14	=14	=14	=14	=14	=14
4D/	.	8a/	.	8dd\L	.	.	.	.	.	.	.
.	.	4dd\	.	8bb\	.	.	.	.	.	.	.
8r	.	.	.	8aa\	.	.	.	.	.	.	.
16A\LL	.	8cc#\	.	8gg\J	.	.	.	.	.	.	.
16G\JJ	.	.	.	.	.	.	.	.	.	.	.
!LO:TX:a:t=problem: mixed beam	!	!	!	!	!	!	!	!	!	!	!
8F#\L	.	8a/L	.	(24ff#\LL	.	.	.	.	.	.	.
.	.	.	.	24ee\	.	.	.	.	.	.	.
.	.	.	.	24dd\JJ)	.	.	.	.	.	.	.
8G\	.	8b/J	.	(16gg\LL	.	.	.	.	.	.	.
.	.	.	.	16ee\JJ)	.	.	.	.	.	.	.
8A\	.	4gM/	.	4eeM\	.	.	.	.	.	.	.
8AA/J	.	.	.	.	.	.	.	.	.	.	.
=15	=15	=15	=15	=15	=15	=15	=15	=15	=15	=15	=15
!	!	!	!	!	!LO:DY:t=a	!LO:TX:a:t=Solo	!	!	!	!	!
4D/	.	8a/	.	8dd\	p	8r	.	.	.	.	.
.	.	4ff#\	.	4aa\	.	8D\	E-	.	.	.	.
8r	.	.	.	.	.	8F#\	-rat	.	.	.	.
8A\	.	16ee\LL	.	16gg\LL	.	8A\	vir	.	.	.	.
.	.	16cc#\JJ	.	16ee\JJ	.	.	.	.	.	.	.
4D/	.	8dd\	.	8ff#\	.	8d\L	Do-	.	.	.	.
.	.	4a/	.	4ff#\	.	16c#\L	.	.	.	.	.
.	.	.	.	.	.	16B\JJ	.	.	.	.	.
8r	.	.	.	.	.	16A\LL	.	.	.	.	.
.	.	.	.	.	.	16G\	.	.	.	.	.
8C#/	.	8e/	.	8cc#\	.	16F#\	.	.	.	.	.
.	.	.	.	.	.	16E\JJ	.	.	.	.	.
=16	=16	=16	=16	=16	=16	=16	=16	=16	=16	=16	=16
4D/	.	8a/L	.	8dd\L	.	16F#\LL	.	.	.	.	.
.	.	.	.	.	.	16D\	.	.	.	.	.
.	.	8e/	.	8cc#\	.	16E\	.	.	.	.	.
.	.	.	.	.	.	16F#\JJ	.	.	.	.	.
8r	.	8b/	.	8dd\	.	16G\LL	.	.	.	.	.
.	.	.	.	.	.	16A\	.	.	.	.	.
8A\	.	8cc#/J	.	8ee\J	.	16B\	.	.	.	.	.
.	.	.	.	.	.	16c#\JJ	.	.	.	.	.
4D/	.	8a/	.	8ff#\	.	8d\L	.	.	.	.	.
!	!	!	!	!	!	!LO:TX:a:t=problem: mixed beam	!	!	!	!	!
.	.	4ff#\	.	4aa\	.	16D/L	.	.	.	.	.
.	.	.	.	.	.	16d\JJ	.	.	.	.	.
8r	.	.	.	.	.	16c#\LL	.	.	.	.	.
.	.	.	.	.	.	16B\	.	.	.	.	.
8C#/	.	8cc#\	.	8ee\	.	16A\	.	.	.	.	.
.	.	.	.	.	.	16G\JJ	.	.	.	.	.
=17	=17	=17	=17	=17	=17	=17	=17	=17	=17	=17	=17
8D\L	.	8a/L	.	8ff#\L	.	8.F#\	.	00r	.	00r	.
8E\	.	8g/	.	8cc#\J	.	.	.	.	.	.	.
.	.	.	.	.	.	16E\	-mi-	.	.	.	.
8F#\	.	8a/	.	8dd\L	.	8D\	-ni	.	.	.	.
!	!	!	!	!	!LO:DY:a	!	!	!	!	!	!
8D\J	.	8a/J	.	16ff#\L	f	8r	.	.	.	.	.
.	.	.	.	16dd\JJ	.	.	.	.	.	.	.
!	!	!LO:LB:g=original	!	!	!	!	!	!	!	!	!
8AA/L	.	8cc#\L	.	4.ee\	.	2r	.	.	.	.	.
8BB/	.	8dd\	.	.	.	.	.	.	.	.	.
8C#/	.	8ee\	.	.	.	.	.	.	.	.	.
8AA/J	.	8cc#\J	.	16gg\LL	.	.	.	.	.	.	.
.	.	.	.	16ee\JJ	.	.	.	.	.	.	.
!	!	!	!	!LO:LB:g=original	!	!	!	!	!	!	!
=18	=18	=18	=18	=18	=18	=18	=18	=18	=18	=18	=18
!	!	!	!	!	!	!LO:TX:a:t=3	!	!	!	!	!
8D\L	.	8a\L	.	(16ff#\LL	.	0r	.	.	.	.	.
.	.	.	.	16dd\)	.	.	.	.	.	.	.
8B\	.	8dd\	.	(16gg\	.	.	.	.	.	.	.
.	.	.	.	16ee\JJ)	.	.	.	.	.	.	.
8G\	6	8b\	.	16ff#`\LL	.	.	.	.	.	.	.
.	.	.	.	(16dd\	.	.	.	.	.	.	.
8E\J	.	8g\J	.	16cc#\	.	.	.	.	.	.	.
.	.	.	.	16dd\JJ)	.	.	.	.	.	.	.
!LO:LB:g=original	!	!	!	!LO:TX:a:t=problem: mixed beam	!	!	!	!	!	!	!
8AA/L	.	8e/L	.	16ee\LL	.	.	.	.	.	.	.
.	.	.	.	16a/	.	.	.	.	.	.	.
8BB/	.	8d/	.	16a/	.	.	.	.	.	.	.
.	.	.	.	16a/JJ	.	.	.	.	.	.	.
8C#/	6	8e/	.	16a\LL	.	.	.	.	.	.	.
.	.	.	.	16ee\	.	.	.	.	.	.	.
!	!	!LO:TX:a:t=problem: mixed beam	!	!	!	!	!	!	!	!	!
8AA/J	.	8cc#\J	.	16dd\	.	.	.	.	.	.	.
.	.	.	.	16ee\JJ	.	.	.	.	.	.	.
=19	=19	=19	=19	=19	=19	=19	=19	=19	=19	=19	=19
8D\L	.	8a\L	.	(16ff#\LL	.	.	.	.	.	.	.
.	.	.	.	16dd\)	.	.	.	.	.	.	.
8B\	-	8dd\	.	(16gg\	.	.	.	.	.	.	.
.	.	.	.	16ee\JJ)	.	.	.	.	.	.	.
8G\	6	8b\	.	16ff#\LL	.	.	.	.	.	.	.
.	.	.	.	16dd\	.	.	.	.	.	.	.
8E\J	.	8g\J	.	16cc#\	.	.	.	.	.	.	.
.	.	.	.	16dd\JJ	.	.	.	.	.	.	.
8A\L	.	8e/L	.	16ee\LL	.	.	.	.	.	.	.
.	.	.	.	16ff#\JJ	.	.	.	.	.	.	.
8B\	.	8d/	.	4gg\	.	.	.	.	.	.	.
8c#\	.	8e/	.	.	.	.	.	.	.	.	.
!	!	!LO:TX:a:t=problem: mixed beam	!	!	!	!	!	!	!	!	!
8A\J	.	8cc#\J	.	8ee\	.	.	.	.	.	.	.
=20	=20	=20	=20	=20	=20	=20	=20	=20	=20	=20	=20
8D\L	.	8a/L	.	8ff#\L	.	1r	.	.	.	.	.
8F#\	.	8a/	.	8dd\	.	.	.	.	.	.	.
8G\	.	8b/	.	8ee\	.	.	.	.	.	.	.
8A\J	.	8e/J	.	8cc#\J	.	.	.	.	.	.	.
!	!	!	!	!LO:TX:a:t=problem: mixed beam	!	!	!	!	!	!	!
8D\L	.	8f#/L	.	8dd\L	.	.	.	.	.	.	.
8D\	.	8d/	.	8d/	.	.	.	.	.	.	.
8F#\	.	8f#/	.	8f#/	.	.	.	.	.	.	.
8A\J	.	8a/J	.	8a/J	.	.	.	.	.	.	.
!	!	!	!	!	!	!LO:LB:g=original	!	!	!	!	!
=21	=21	=21	=21	=21	=21	=21	=21	=21	=21	=21	=21
!	!	!	!	!	!	!	!	!	!	!LO:N:vis=0	!
4D/	.	8d/L	.	8d/L	p	8r	.	00r	.	1r	.
.	.	8f#/	.	8a/	.	8D\	E-	.	.	.	.
8r	.	8f#/	.	8a/	.	8F#\	-rat	.	.	.	.
8C#/	.	8e/J	.	8a/J	.	8A\	vir	.	.	.	.
4BB/	.	8d/L	.	8g/L	.	8d\L	Do-	.	.	.	.
.	.	8e/	.	8g/	.	16c#\L	.	.	.	.	.
.	.	.	.	.	.	16B\JJ	.	.	.	.	.
8r	.	8c#/	.	8e/	.	16A\LL	.	.	.	.	.
.	.	.	.	.	.	16G\	.	.	.	.	.
8C#/	.	8e/J	.	8a/J	.	16F#\	.	.	.	.	.
.	.	.	.	.	.	16E\JJ	.	.	.	.	.
=22	=22	=22	=22	=22	=22	=22	=22	=22	=22	=22	=22
4D/	.	8f#/L	.	8a/L	.	16F#\LL	.	.	.	2r	.
.	.	.	.	.	.	16D\	.	.	.	.	.
.	.	8f#/	.	8a/	.	16E\	.	.	.	.	.
.	.	.	.	.	.	16F#\JJ	.	.	.	.	.
8r	.	8f#/	.	8a/	.	16G\LL	.	.	.	.	.
.	.	.	.	.	.	16A\	.	.	.	.	.
8E\	.	8c#/J	.	8g/J	.	16B\	.	.	.	.	.
.	.	.	.	.	.	16c#\JJ	.	.	.	.	.
!LO:TX:a:t=problem: mixed beam	!	!	!	!	!	!	!	!	!	!	!
8F#\L	.	8d/L	.	8a/L	.	8d\L	.	.	.	4r	.
!	!	!	!	!	!	!LO:TX:a:t=problem: mixed beam	!	!	!	!	!
8G\	.	8d/	.	8e/	.	16D/L	.	.	.	.	.
.	.	.	.	.	.	16d\JJ	.	.	.	.	.
8A\	.	8d/	.	8f#/	.	16c#\LL	.	.	.	8r	.
.	.	.	.	.	.	16B\	.	.	.	.	.
8AA/J	.	8c#/J	.	8g/J	.	16A\	.	.	.	8r	.
.	.	.	.	.	.	16G\JJ	.	.	.	.	.
=23	=23	=23	=23	=23	=23	=23	=23	=23	=23	=23	=23
!	!	!	!	!LO:TX:a:t=problem: mixed beam	!	!	!	!	!	!	!
8D\L	.	8A/L	.	8f#/L	.	8.F#\	.	.	.	2r	.
8A\	.	16g/L	.	16ee\L	.	.	.	.	.	.	.
.	.	16e/JJ	.	16cc#\JJ	.	16E\	-mi-	.	.	.	.
8d\	.	8f#/L	.	8dd\L	.	16D\	-ni	.	.	.	.
.	.	.	.	.	.	16r	.	.	.	.	.
!	!	!LO:TX:a:t=problem: mixed beam	!	!	!	!	!	!	!	!	!
8A\J	.	16ee\L	.	16gg\L	.	8r	.	.	.	.	.
.	.	16cc#\JJ	.	16ee\JJ	.	.	.	.	.	.	.
!	!	!LO:TX:a:t=problem: mixed beam	!	!LO:LB:g=original	!	!	!	!	!	!	!
8D\L	.	8dd\L	.	8ff#\L	.	2r	.	.	.	4r	.
8A\	.	16f#/L	.	16dd\L	.	.	.	.	.	.	.
.	.	16e/JJ	.	16cc#\JJ	.	.	.	.	.	.	.
8D\J	.	8f#/L	.	8dd\L	.	.	.	.	.	8r	.
!	!	!	!	!	!	!	!	!	!	!LO:TX:a:t=Solo	!
8r	.	8f#/J	.	8a\J	.	.	.	.	.	8a\	E-
!LO:LB:g=original	!	!LO:LB:g=original	!	!	!	!	!	!	!	!	!
=24	=24	=24	=24	=24	=24	=24	=24	=24	=24	=24	=24
2r	.	8d/L	.	8f#/L	.	1r	.	.	.	8dd\	-rat
.	.	8e/	.	8g/	.	.	.	.	.	8cc#\	e-
.	.	8f#/	.	8a/	.	.	.	.	.	16dd\LL	-rat
.	.	.	.	.	.	.	.	.	.	16ff#\JJ	.
.	.	8g/J	.	8b/J	.	.	.	.	.	16ee\LL	vir
.	.	.	.	.	.	.	.	.	.	16dd\JJ	.
4r	.	8a\L	.	8cc#\L	.	.	.	.	.	8.cc#\	Do-
.	.	8b\J	.	8dd\J	.	.	.	.	.	.	.
.	.	.	.	.	.	.	.	.	.	16b\	-mi-
8r	.	8cc#\L	.	8ee\L	.	.	.	.	.	8a\	-ni
8AA/	.	16ee\L	.	16gg\L	.	.	.	.	.	8r	.
.	.	16cc#\JJ	.	16ee\JJ	.	.	.	.	.	.	.
=25	=25	=25	=25	=25	=25	=25	=25	=25	=25	=25	=25
8D\L	.	8a/L	.	8ff#\L	.	2r	.	2r	.	2r	.
8A\	.	16f#/L	.	16dd\L	.	.	.	.	.	.	.
.	.	16e/JJ	.	16cc#\JJ	.	.	.	.	.	.	.
!	!	!LO:TX:a:t=problem: mixed beam	!	!	!	!	!	!	!	!	!
8F#\	.	8f#/L	.	8dd\L	.	.	.	.	.	.	.
8C#\J	.	8ee\J	.	16aa\L	.	.	.	.	.	.	.
.	.	.	.	16gg\JJ	.	.	.	.	.	.	.
!LO:TX:a:t=problem: mixed beam	!	!	!	!	!	!	!	!	!	!	!
8D\L	.	8a/L	.	(16ff#\LL	.	4r	.	4r	.	4r	.
.	.	.	.	16dd\)	.	.	.	.	.	.	.
8G\	.	8b/	.	(16gg\	.	.	.	.	.	.	.
.	.	.	.	16ee\JJ)	.	.	.	.	.	.	.
8A\	.	8.a/	.	8.ff#\L	.	8r	.	8r	.	8r	.
8AA/J	.	.	.	.	.	8A\	E-	8a\	E	8a\	E-
.	.	16g/J	.	16ee\Jk	.	.	.	.	.	.	.
=26	=26	=26	=26	=26	=26	=26	=26	=26	=26	=26	=26
!LO:TX:a:t=Tutti	!	!	!LO:DY:t=fo:	!	!	!	!	!	!	!	!
16D/LL	.	16f#/LL	f	16dd\LL	f	8d\	-rat	8a\	-rat	8dd\	{-rat
16D/	.	16f#/	.	16a\	.	.	.	.	.	.	.
16D/	.	16f#/	.	16a\	.	8d\	{e-	8a\	e-	8dd\	e-
16D/JJ	.	16f#/JJ	.	16a\JJ	.	.	.	.	.	.	.
16C#/LL	.	16e/LL	.	16a/LL	.	8c#\	-rat}	8a\	-rat	8ee\	-rat}
16C#/	.	16e/	.	16a/	.	.	.	.	.	.	.
16C#/	.	16e/	.	16a/	.	8c#\	vir	8a\	vir	8ff#\	vir
16C#/JJ	.	16e/JJ	.	16a/JJ	.	.	.	.	.	.	.
!	!	!	!	!	!	!LO:LB:g=original	!	!	!	!	!
16BB/LL	.	16g/LL	.	16dd\LL	.	8.B\	Do-	8.f#\	Do-	8.ff#\	Do-
16BB/	.	16g/	.	16dd\	.	.	.	.	.	.	.
16BB/	.	16g/	.	16dd\	.	.	.	.	.	.	.
16BB/JJ	.	16g/JJ	.	16dd\JJ	.	16B\	-mi-	16g\	-mi-	16ee\	-mi-
16AA/LL	.	16cc#\LL	.	16ee\LL	.	8A\	-ni	8a\	-ni	8ee,\	-ni,
16AA/	.	16cc#\	.	16ee\	.	.	.	.	.	.	.
16AA/	.	16cc#\	.	16ee\	.	8A\	vul-	8a\	vu-	8ee\	vu-
16AA/JJ	.	16cc#\JJ	.	16ee\JJ	.	.	.	.	.	.	.
!	!	!	!	!	!	!	!	!	!	!LO:LB:g=original	!
=27	=27	=27	=27	=27	=27	=27	=27	=27	=27	=27	=27
16BB/LL	.	16dd\LL	.	16gg\LL	.	8B\	-tu	8d\	-tu	8gg\	-tu
16BB/	.	16dd\	.	16gg\	.	.	.	.	.	.	.
16BB/	.	16dd\	.	16gg\	.	8B\	pla-	8d\	pla-	8gg\	pla-
16BB/JJ	.	16dd\JJ	.	16gg\JJ	.	.	.	.	.	.	.
16C#/LL	.	16ee\LL	.	16aa\LL	.	8c#\	-ci-	8g\	-ci-	8ee\	-ci-
16C#/	.	16ee\	.	16aa\	.	.	.	.	.	.	.
16C#/	.	16ee\	.	16aa\	.	8c#\	-do	8g\	-do	8ee\	-do
16C#/JJ	.	16ee\JJ	.	16aa\JJ	.	.	.	.	.	.	.
16D/LL	.	16a/LL	.	16ff#\LL	.	8.d\	mo-	8.f#\,	mi-	8.ff#\	mo-
!	!	!	!	!LO:TX:a:t=problem: mixed beam	!	!	!	!	!	!	!
16D/	.	16a/	.	16aa\	.	.	.	.	.	.	.
16D/	.	16a/	.	16a\	.	.	.	.	.	.	.
16D/JJ	.	16a/JJ	.	16a\JJ	.	16D/	-ri-	16g\	-ri-	16ee\	-ri-
16d\LL	.	16a/LL	.	16a/LL	.	8D/	-b(us)	8a\	-b(us),	8dd\	-b(us)
16d\	.	16a/	.	16a/	.	.	.	.	.	.	.
16d\	.	16a/	.	16a/	.	16d\	de-	16a\	de-	16ff#\	de-
16d\JJ	.	16a/JJ	.	16a/JJ	.	16d\	-co-	16a\	-co-	16ff#\	-co-
!	!	!	!	!	!	!	!	!LO:LB:g=original	!	!	!
=28	=28	=28	=28	=28	=28	=28	=28	=28	=28	=28	=28
!	!	!LO:TX:a:t=problem: mixed beam	!	!LO:TX:a:t=problem: mixed beam	!	!	!	!	!	!	!
16c#\LL	.	16a/LL	.	16a\LL	.	8c#\	-ra-	8a\	-ra-	8ee\	-ra-
16c#\	.	16aa\	.	16aa/	.	.	.	.	.	.	.
16c#\	.	16a/	.	16a\	.	8c#\	-tus	8a\	-tus	8ee\	-tus
16c#\JJ	.	16a/JJ	.	16a\JJ	.	.	.	.	.	.	.
16c#\LL	.	16a/LL	.	16a/LL	.	8c#\	de-	8a\	de-	8ee\	de-
16c#\	.	16a/	.	16a/	.	.	.	.	.	.	.
16c#\	.	16a/	.	16a/	.	8c#\	-co-	8a\	-co-	8ee\	-co-
16c#\JJ	.	16a/JJ	.	16a/JJ	.	.	.	.	.	.	.
!	!	!LO:LB:g=original	!	!LO:LB:g=original	!	!	!	!	!	!	!
16B\LL	6|	16g#X/LL	.	16dd\LL	.	16B\LL	-ra-	4g#X\	-ra-	16dd\LL	-ra-
16B\	.	16g#/	.	16cc#\	.	16A\	.	.	.	16cc#\	.
16B\	.	16g#/	.	16dd\	.	16B\	.	.	.	16dd\	.
16B\JJ	.	16g#/JJ	.	16ee\JJ	.	16c#\JJ	.	.	.	16ee\JJ	.
16G#X\LL	6|	16b\LL	.	16dd\LL	.	16B\LL	.	8g#\	-tus	16dd\LL	.
16G#\	.	16dd\	.	16ff#\	.	16d\	.	.	.	16ff#\	.
16G#\	.	16cc#\	.	16ee\	.	16c#\	.	8g#\	An-	16ee\	.
16G#\JJ	.	16b\JJ	.	16dd\JJ	.	16B\JJ	.	.	.	16dd\JJ	.
!LO:LB:g=original	!	!	!	!	!	!	!	!	!	!	!
=29	=29	=29	=29	=29	=29	=29	=29	=29	=29	=29	=29
!LO:TX:a:t=problem: mixed beam	!	!	!	!	!	!	!	!	!	!	!
16A\LL	.	16a\LL	.	16cc#\LL	.	16c#\LL	.	8a\	-ge-	16ee\LL	-tu
16AA/	.	16cc#\	.	16ee\	.	16B\	.	.	.	16dd\	.
16AA/	.	16cc#\	.	16ee\	.	16A\	.	16a\	-li-	16cc#\	.
16AA/JJ	.	16cc#\JJ	.	16ee\JJ	.	16B\JJ	.	16a\	-cus	16dd\JJ	.
16C#/LL	.	16cc#\LL	.	16ee\LL	.	16c#\LL	.	8a\	E-	16ee\LL	An-
16C#/	.	16cc#\	.	16ee\	.	16d\	.	.	.	16ff#\	.
16C#/	.	16cc#\	.	16ee\	.	16e\	.	8a\	-rat	16gg\	.
16C#/JJ	.	16cc#\JJ	.	16ee\JJ	.	16c#\JJ	.	.	.	16ee\JJ	.
16D/LL	.	16a/LL	.	16ff#\LL	.	8d\	.	8a\	{e-	8.ff#\	ge-
16D/	.	16a/	.	16ff#\	.	.	.	.	.	.	.
16D/	.	16a/	.	16ff#\	.	8A\	-tus	8a\	-rat	.	.
16D/JJ	.	16a/JJ	.	16ff#\JJ	.	.	.	.	.	16ff#\	-li-
!	!	!	!	!	!	!LO:LB:g=original	!	!	!	!	!
16BB/LL	.	16dd\LL	.	16gg\LL	.	8F#\	De-	8b\	e-	8ff#,\	-cis,
16BB/	.	16dd\	.	16gg\	.	.	.	.	.	.	.
16BB/	.	16dd\	.	16gg\	.	8D\	-co-	8b\	-rat	8dd\	E-
16BB/JJ	.	16dd\JJ	.	16gg\JJ	.	.	.	.	.	.	.
!	!	!	!	!	!	!	!	!	!	!LO:LB:g=original	!
=30	=30	=30	=30	=30	=30	=30	=30	=30	=30	=30	=30
16E\LL	.	16b\LL	.	16gg#X\LL	.	8E\	-ra-	8g#X\	e-	8b\	-rat
16E\	.	16b\	.	16gg#\	.	.	.	.	.	.	.
16E\	.	16b\	.	16gg#\	.	8E\	-tus	8g#\	-rat}	8b\	e-
16E\JJ	.	16b\JJ	.	16gg#\JJ	.	.	.	.	.	.	.
16C#/LL	.	16ee\LL	.	16aa\LL	.	8C#/	vir	8a\	de-	8ee\	-rat
16C#/	.	16ee\	.	16aa\	.	.	.	.	.	.	.
16C#/	.	16ee\	.	16aa\	.	8C#/	.	8a\	-co-	8ee\	vir
16C#/JJ	.	16ee\JJ	.	16aa\JJ	.	.	.	.	.	.	.
16F#\LL	.	16cc#\LL	.	16aa\LL	.	8F#\	vir	8a\	-ra-	8.cc#\	Do-
16F#\	.	16cc#\	.	16aa\	.	.	.	.	.	.	.
16F#\	.	16cc#\	.	16aa\	.	8F#\	Do-	8a\	-tus	.	.
16F#\JJ	.	16cc#\JJ	.	16aa\JJ	.	.	.	.	.	16cc#\	-mi-
16D#X\LL	.	16ff#\LL	.	16aa\LL	.	8D#X/	-mi-	8a\	E-	8ff#\	-ni
16D#\	.	16ff#\	.	16aa\	.	.	.	.	.	.	.
16D#\	.	16ff#\	.	16aa\	.	8D#/	-ni,	8a\	-rat	8ff#\	de-
16D#\JJ	.	16ff#\JJ	.	16aa\JJ	.	.	.	.	.	.	.
!	!	!	!	!	!	!	!	!LO:LB:g=original	!	!	!
=31	=31	=31	=31	=31	=31	=31	=31	=31	=31	=31	=31
*2\right	*	*	*	*	*	*	*	*	*	*	*
!	!	!LO:TX:a:t=problem: mixed beam	!	!LO:TX:a:t=problem: mixed beam	!	!	!	!	!	!	!
2E`\	.	16b\LL	.	16gg#X\LL	.	8E\	de-	8g#X\	de-	8b\	-co-
.	.	16e/	.	16e/	.	.	.	.	.	.	.
.	.	16e/	.	16e/	.	8E\	-co-	16a\LL	-co-	16cc#\L	-ra-
.	.	16e/JJ	.	16e/JJ	.	.	.	16g#\JJ	.	16b\J	.
.	.	16e/LL	.	16e/LL	.	8E\	-rat	8b\	-ra-	8dd\	-tus
.	.	16e/	.	16e/	.	.	.	.	.	.	.
.	.	16e/	.	16e/	.	8E\	An-	16a\LL	-tus	16cc#\L	An-
.	.	16e/JJ	.	16e/JJ	.	.	.	16g#X\JJ	.	16b\J	.
8AA/L	.	16e/LL	.	16e/LL	.	8AA/	-ge-	8.a\	An-	8.cc#\	-ge-
.	.	16e/	.	16e/	.	.	.	.	.	.	.
8BB/	.	16e/	.	16e/	.	8BB/	-li-	.	.	.	.
.	.	16e/JJ	.	16e/JJ	.	.	.	16e\	-ge-	16dd\	-li-
!	!	!	!	!LO:TX:a:t=problem: mixed beam	!	!	!	!	!	!	!
8C#/	.	16e/LL	.	16e/LL	.	8C#/,	-cis,	8e\	-li-	8ee,\	-cis,
.	.	16b/	.	16gg#X\	.	.	.	.	.	.	.
8E/J	.	16b/	.	16gg#\	.	8E\	tam-	8g#X\	-cis	8b\	tan-
.	.	16b/JJ	.	16gg#\JJ	.	.	.	.	.	.	.
=32	=32	=32	=32	=32	=32	=32	=32	=32	=32	=32	=32
!	!	!	!	!LO:TX:a:t=problem: mixed beam	!	!	!	!	!	!	!
8AA/L	.	16cc#\LL	.	16aa\LL	.	8AA/	-taq(ue)	8e\	tan-	8cc#\	-ta-
.	.	16a\	.	16a/	.	.	.	.	.	.	.
8C#/	.	16a\	.	16a/	.	16BB/	cir-	16e\	-ta-	16dd\	-q(ue)
.	.	16a\JJ	.	16a/JJ	.	16C#/	-ca	16f#\	-q(ue)	16ee\	cir-
8BB/	.	16f#/LL	.	16a/LL	.	8BB/	e-	8g#X\	cir-	8dd\	-ca
.	.	16f#/	.	16a/	.	.	.	.	.	.	.
8AA/J	.	16f#/	.	16a/	.	8F#\	-um	8a\	-ca	8cc#\	e-
.	.	16f#/JJ	.	16a/JJ	.	.	.	.	.	.	.
!	!	!LO:LB:g=original	!	!	!	!LO:LB:g=original	!	!	!	!	!
8E\L	.	16g#X/LL	.	16b/LL	.	8E\	{cla-	8g#\	e-	16b\LL	-um
.	.	16g#/	.	16b/	.	.	.	.	.	16g#X\JJ	.
8E\	.	16g#/	.	16b/	.	8E\	-ra	8g#\	-um	8r	.
.	.	16g#/JJ	.	16b/JJ	.	.	.	.	.	.	.
8E\	.	16g#/LL	.	16b/LL	.	8E\	cla-	8g#\	{e-	4r	.
.	.	16g#/	.	16b/	.	.	.	.	.	.	.
8E\J	.	16g#/	.	16b/	.	8E\	-ra	8g#\	-um}	.	.
.	.	16g#/JJ	.	16b/JJ	.	.	.	.	.	.	.
!	!	!	!	!LO:LB:g=original	!	!	!	!	!	!	!
=33	=33	=33	=33	=33	=33	=33	=33	=33	=33	=33	=33
8E\L	.	16a/LL	.	16cc#\LL	.	16A\LL	cla-	8a\	Cla-	16cc#\LL	Cla-
.	.	16a/	.	16cc#\	.	16B\JJ	.	.	.	16dd\JJ	.
8E\	.	16a/	.	16cc#\	.	4c#\	-ra	8a\	-ra	4ee\	.
.	.	16a/JJ	.	16cc#\JJ	.	.	.	.	.	.	.
8E\	.	16a/LL	.	16cc#\LL	.	.	.	8a\	{Cla-	.	.
.	.	16a/	.	16cc#\	.	.	.	.	.	.	.
8E\J	.	16a/	.	16cc#\	.	8A\	.	8a\	-ra	16cc#\LL	.
.	.	16a/JJ	.	16cc#\JJ	.	.	.	.	.	16a\JJ	.
!	!	!	!	!	!	!	!	!	!	!LO:LB:g=original	!
8E\L	.	16g#X/LL	.	16b\LL	.	8B\	cla-	8g#X\	Cla-	8dd\	.
.	.	16g#/	.	16b\	.	.	.	.	.	.	.
8E\	.	16g#/	.	16b\	.	4B\	.	8g#\	-ra	4dd\	.
.	.	16g#/JJ	.	16b\JJ	.	.	.	.	.	.	.
8E\	.	16g#/LL	.	16b\LL	.	.	.	8g#\	Cla-	.	.
.	.	16g#/	.	16b\	.	.	.	.	.	.	.
8E\J	.	16g#/	.	16b\	.	16A\LL	-ra	8g#\	-ra}	16cc#\LL	.
.	.	16g#/JJ	.	16b\JJ	.	16G#X\JJ	.	.	.	16b\JJ	.
!LO:LB:g=original	!	!	!	!	!	!	!	!LO:LB:g=original	!	!	!
=34	=34	=34	=34	=34	=34	=34	=34	=34	=34	=34	=34
16AA/LL	.	16a/LL	.	16cc#\LL	.	8A\	clara-	8a\L	Cla-	16cc#\LL	.
16BB/	.	16a/	.	16dd\	.	.	.	.	.	16dd\	.
16C#/	.	16a/	.	16ee\	.	8AA/	.	8f#\J	.	16ee\	.
16D/JJ	.	16a/JJ	.	16ff#\JJ	.	.	.	.	.	16ff#\JJ	.
!	!	!	!	!LO:TX:a:t=problem: mixed beam	!	!	!	!	!	!	!
16E\LL	.	16b/LL	.	16gg#X\LL	.	4E\	.	16g#X\LL	.	16b\LL	.
16E\	.	16e/	.	16e/	.	.	.	16f#\J	.	16a\J	.
16E\	.	16e/	.	16e/	.	.	.	8g#\J	.	8b\J	.
16E\JJ	.	16e/JJ	.	16e/JJ	.	.	.	.	.	.	.
*	*	*	*	*	*	*2\right	*	*	*	*	*
!	!	!LO:TX:a:t=problem: mixed beam	!	!LO:TX:a:t=problem: mixed beam	!	!	!	!	!	!	!
16E\LL	.	16e/LL	.	16e/LL	.	2E\	-ra}	16g#\LL	.	16g#X\LL	.
16E\	.	16ee\	.	16ee\	.	.	.	16f#\	.	16a\	.
16E\	.	16e/	.	16e/	.	.	.	16g#\	.	16b\	.
16E\JJ	.	16e/JJ	.	16e/JJ	.	.	.	16a\JJ	.	16cc#\JJ	.
16E\LL	.	16e/LL	.	16e/LL	.	.	.	16b\LL	.	16dd\LL	.
16E\	.	16e/	.	16e/	.	.	.	16a\J	.	16cc#\J	.
16E\	.	16e/	.	16e/	.	.	.	8g#X\J	.	8b\J	.
16E\JJ	.	16e/JJ	.	16e/JJ	.	.	.	.	.	.	.
=35	=35	=35	=35	=35	=35	=35	=35	=35	=35	=35	=35
*	*	*	*	*	*	*	*	*2\right	*	*Xtuplet	*
!	!	!LO:TX:a:t=problem: mixed beam	!	!	!	!	!	!	!	!	!
16A\LL	.	16e/LL	.	16cc#\LL	.	4A\	cla-	2e\	.	(24cc#\LL	.
.	.	.	.	.	.	.	.	.	.	24b\	.
16A\	.	16cc#\	.	16aa\	.	.	.	.	.	.	.
.	.	.	.	.	.	.	.	.	.	24a\J)	.
16A\	.	16cc#\	.	16aa\	.	.	.	.	.	8ee\J	.
16A\JJ	.	16cc#\JJ	.	16aa\JJ	.	.	.	.	.	.	.
16G#X\LL	.	16b\LL	.	16b\LL	.	4G#X\	-ra	.	.	(24b\LL	.
.	.	.	.	.	.	.	.	.	.	24a\	.
16G#\	.	16b\	.	16gg#X\	.	.	.	.	.	.	.
.	.	.	.	.	.	.	.	.	.	24g#X\J)	.
16G#\	.	16b\	.	16gg#\	.	.	.	.	.	8dd\J	.
16G#\JJ	.	16b\JJ	.	16gg#\JJ	.	.	.	.	.	.	.
16AA/LL	.	16cc#\LL	.	16aa\LL	.	8A\	Cla-	8e\	.	8cc#\	.
16AA/	.	16cc#\	.	16ee\	.	.	.	.	.	.	.
16BB/	.	16cc#\	.	16ee\	.	16B\	-ri-	16g\	-ri-	16dd\	-ri-
16BB/JJ	.	16cc#\JJ	.	16ee\JJ	.	16B\,	-tas,	16g\	-tas	16dd\	-tas
16C#/LL	.	16a\LL	.	16ee\LL	.	8c#\	ex-	8a\	.	8ee\	.
16C#/	.	16a\	.	16ee\	.	.	.	.	.	.	.
16AA/	.	16cc#\	.	16ee\	.	8A\	-cre-	8a\	Cla-	8cc#\	Cla-
16AA/JJ	.	16cc#\JJ	.	16ee\JJ	.	.	.	.	.	.	.
=36	=36	=36	=36	=36	=36	=36	=36	=36	=36	=36	=36
16D/LL	.	16a/LL	.	16ff#\LL	.	4d\	-ve-	(4a\	-ra	16ff#\LL	-ra
16D/	.	16a/	.	16ee\	.	.	.	.	.	16ee\	.
16D/	.	16a/	.	16dd\	.	.	.	.	.	16dd\	.
16D/JJ	.	16a/JJ	.	16cc#\JJ	.	.	.	.	.	16cc#\JJ	.
16BB/LL	.	16f#/LL	.	16dd\LL	.	4B\	-rat	4f#\)	Cla-	4dd\	Cla-
16BB/	.	16f#/	.	16dd\	.	.	.	.	.	.	.
16BB/	.	16f#/	.	16dd\	.	.	.	.	.	.	.
16BB/JJ	.	16f#/JJ	.	16dd\JJ	.	.	.	.	.	.	.
!	!	!LO:LB:g=original	!	!	!	!LO:LB:g=original	!	!	!	!	!
16GG#X/LL	.	16b/LL	.	16ee\LL	.	4G#X\	{ex-	4b\	.	16ee\LL	.
16GG#/	.	16b/	.	16dd\	.	.	.	.	.	16dd\	.
16GG#/	.	16b/	.	16cc#\	.	.	.	.	.	16cc#\	.
16GG#/JJ	.	16b/JJ	.	16b\JJ	.	.	.	.	.	16b\JJ	.
16AA/LL	.	16e/LL	.	16cc#\LL	.	4A\	-cre-	4e\	.	4cc#\	.
16AA/	.	16e/	.	16cc#\	.	.	.	.	.	.	.
16AA/	.	16e/	.	16cc#\	.	.	.	.	.	.	.
16AA/JJ	.	16e/JJ	.	16cc#\JJ	.	.	.	.	.	.	.
!	!	!	!	!	!	!	!	!	!	!LO:LB:g=original	!
=37	=37	=37	=37	=37	=37	=37	=37	=37	=37	=37	=37
16F#\LL	6	16a/LL	.	16dd\LL	.	4F#\	-ve-	4a\	.	16dd\LL	.
16F#\	.	16a/	.	16cc#\	.	.	.	.	.	16cc#\	.
16F#\	.	16a/	.	16b\	.	.	.	.	.	16b\	.
16F#\JJ	.	16a/JJ	.	16a\JJ	.	.	.	.	.	16a\JJ	.
16G#X\LL	.	16e/LL	.	16b\LL	.	4G#X\,	-rat,	4b\	.	16ee\LL	.
16G#\	.	16e/	.	16b\	.	.	.	.	.	16dd\	.
16G#\	.	16e/	.	16b\	.	.	.	.	.	16cc#\	.
16G#\JJ	.	16e/JJ	.	16b\JJ	.	.	.	.	.	16b\JJ	.
!LO:LB:g=original	!	!	!	!LO:LB:g=original	!	!	!	!	!	!	!
16E\LL	6 5	16g/LL	.	16cc#\LL	.	4E\	ex-	4g\	.	16cc#\LL	.
16E\	.	16g/	.	16b\	.	.	.	.	.	16b\	.
16E\	.	16g/	.	16a\	.	.	.	.	.	16a\	.
16E\JJ	.	16g/JJ	.	16gn\JJ	.	.	.	.	.	16gn\JJ	.
16F#\LL	.	16d/LL	.	16a\LL	.	4F#\	-cre-	4a\	.	16dd\LL	.
16F#\	.	16d/	.	16a\	.	.	.	.	.	16cc#\	.
16F#\	.	16d/	.	16a\	.	.	.	.	.	16b\	.
16F#\JJ	.	16d/JJ	.	16a\JJ	.	.	.	.	.	16a\JJ	.
=38	=38	=38	=38	=38	=38	=38	=38	=38	=38	=38	=38
16D#X\LL	.	16f#/LL	.	16b/LL	.	4D#X\	-ve-	4f#\	-ri-	16b\LL	.
16D#\	.	16f#/	.	16a/	.	.	.	.	.	16a\	.
16D#\	.	16f#/	.	16gn/	.	.	.	.	.	16gn\	.
16D#\JJ	.	16f#/JJ	.	16f#/JJ	.	.	.	.	.	16f#\JJ	.
16E\LL	#	16b/LL	.	16g/LL	.	4E\	-rat}	4g\	-tas	8g/	.
16D#\	.	16g/	.	16e/	.	.	.	.	.	.	.
16C#\	.	16g/	.	16ee\	.	.	.	.	.	16f#/	-ri-
16BB\JJ	.	16g/JJ	.	16ee\JJ	.	.	.	.	.	16e/	-tas
!	!	!	!	!	!	!	!	!LO:LB:g=original	!	!	!
16AA/LL	.	16cc#\LL	.	16ee\LL	.	8r	.	8r	.	8r	.
16AA/	.	16cc#\	.	16ee\	.	.	.	.	.	.	.
16AA/	.	16cc#\	.	16ee\	.	4A\	ex-	4cc#\	ex-	4ee\	ex-
16AA/JJ	.	16cc#\JJ	.	16ee\JJ	.	.	.	.	.	.	.
16C#/LL	6	16a/LL	.	16ee\LL	.	.	.	.	.	.	.
16C#/	.	16a/	.	16ee\	.	.	.	.	.	.	.
16C#/	.	16a/	.	16ee\	.	8A\	-cre-	8a\	-cre-	8ee\	-cre-
16C#/JJ	.	16a/JJ	.	16ee\JJ	.	.	.	.	.	.	.
=39	=39	=39	=39	=39	=39	=39	=39	=39	=39	=39	=39
16F#\LL	7	16a/LL	.	16ee\LL	.	4F#\	-ve-	2a\	-ve-	4ee\	-ve-
16F#\	.	16a/	.	16ee\	.	.	.	.	.	.	.
16F#\	.	16a/	.	16ee\	.	.	.	.	.	.	.
16F#\JJ	.	16a/JJ	.	16ee\JJ	.	.	.	.	.	.	.
*	*	*	*	*	*	*	*	*	*	*2\right	*
16B\LL	7	16a/LL	.	16dd\LL	.	4B\	-rat	.	.	2dd\	.
16B\	.	16a/	.	16dd\	.	.	.	.	.	.	.
16B\	.	16a/	.	16dd\	.	.	.	.	.	.	.
16B\JJ	.	16a/JJ	.	16dd\JJ	.	.	.	.	.	.	.
16E\LL	7 #	16g#X/LL	.	16dd\LL	.	4E\	{ex-	2g#X\	.	.	.
16E\	.	16g#/	.	16dd\	.	.	.	.	.	.	.
16E\	.	16g#/	.	16dd\	.	.	.	.	.	.	.
16E\JJ	.	16g#/JJ	.	16dd\JJ	.	.	.	.	.	.	.
16A\LL	7	16g#/LL	.	16cc#\LL	.	4A\	-cre-	.	.	4cc#\	.
16A\	.	16g#/	.	16cc#\	.	.	.	.	.	.	.
16A\	.	16g#/	.	16cc#\	.	.	.	.	.	.	.
16A\JJ	.	16g#/JJ	.	16cc#\JJ	.	.	.	.	.	.	.
=40	=40	=40	=40	=40	=40	=40	=40	=40	=40	=40	=40
16D/LL	7	16f#/LL	.	16cc#\LL	.	4D\	-ve-	2f#\	.	4cc#\	.
16D/	.	16f#/	.	16cc#\	.	.	.	.	.	.	.
16D/	.	16f#/	.	16cc#\	.	.	.	.	.	.	.
16D/JJ	.	16f#/JJ	.	16cc#\JJ	.	.	.	.	.	.	.
16G#X\LL	7	16f#/LL	.	16b\LL	.	4G#X\	-rat	.	.	2b\	.
16G#\	.	16f#/	.	16b\	.	.	.	.	.	.	.
16G#\	.	16f#/	.	16b\	.	.	.	.	.	.	.
16G#\JJ	.	16f#/JJ	.	16b\JJ	.	.	.	.	.	.	.
!	!	!LO:LB:g=original	!	!	!	!	!	!	!	!	!
16C#/LL	7	16e/LL	.	16b\LL	.	4C#/	ex-	2e\	.	.	.
16C#/	.	16e/	.	16b\	.	.	.	.	.	.	.
16C#/	.	16e/	.	16b\	.	.	.	.	.	.	.
16C#/JJ	.	16e/JJ	.	16b\JJ	.	.	.	.	.	.	.
16F#\LL	7	16e/LL	.	16a/LL	.	4F#\	-cre-	.	.	4a\	.
16F#\	.	16e/	.	16a/	.	.	.	.	.	.	.
16F#\	.	16e/	.	16a/	.	.	.	.	.	.	.
16F#\JJ	.	16e/JJ	.	16a/JJ	.	.	.	.	.	.	.
!LO:LB:g=original	!	!	!	!	!	!	!	!	!	!	!
=41	=41	=41	=41	=41	=41	=41	=41	=41	=41	=41	=41
16BB/LL	7 #	16d#X/LL	.	16a/LL	.	(>4BB/	-ve-	2f#\	.	4a\	.
16BB/	.	16d#/	.	16a/	.	.	.	.	.	.	.
16BB/	.	16d#/	.	16a/	.	.	.	.	.	.	.
16BB/JJ	.	16d#/JJ	.	16a/JJ	.	.	.	.	.	.	.
16D#X/LL	6	16f#/LL	.	16a/LL	.	4D#X/)	.	.	.	4b\	.
16D#/	.	16f#/	.	16a/	.	.	.	.	.	.	.
16D#/	.	16f#/	.	16a/	.	.	.	.	.	.	.
16D#/JJ	.	16f#/JJ	.	16a/JJ	.	.	.	.	.	.	.
!	!	!	!	!	!	!LO:LB:g=original	!	!	!	!	!
16E\LL	#	16B/LL	.	16g#X/KL	.	8E\	-rat	8g#X\	-rat	8b,\	-rat,
16E\	.	16B/	.	8e/	.	.	.	.	.	.	.
16E\	.	16B/	.	.	.	4E\	ex-	4g#\	{ex-	4b\	ex-
16E\JJ	.	16B/JJ	.	16g#/Jk	.	.	.	.	.	.	.
16Dn\LL	4 2	16g#X/LL	.	16b/KL	.	.	.	.	.	.	.
16D\	.	16e/	.	8g#/	.	.	.	.	.	.	.
16D\	.	16g#/	.	.	.	8E\	-cre-	8g#\	-cre-	8b\	-cre-
16D\JJ	.	16g#/JJ	.	16b/Jk	.	.	.	.	.	.	.
!	!	!	!	!LO:LB:g=original	!	!	!	!	!	!LO:LB:g=original	!
=42	=42	=42	=42	=42	=42	=42	=42	=42	=42	=42	=42
8C#/L	.	16a/LL	.	16cc#\KL	.	8C#/L	-ve-	4a\	-ve-	4ee\	-ve-
.	.	16a/	.	8ee\	.	.	.	.	.	.	.
8BB/	.	16a/	.	.	.	8BB/J	.	.	.	.	.
.	.	16a/JJ	.	16cc#\Jk	.	.	.	.	.	.	.
8C#/	.	16a\LL	.	16ee\KL	.	8C#/L	-rat	8a\	-rat}	8ee\	-rat
.	.	16cc#\	.	8aa\	.	.	.	.	.	.	.
8AA/J	.	16cc#\	.	.	.	8AA/J	.	8a\	.	8ff#\	.
.	.	16cc#\JJ	.	16ee\Jk	.	.	.	.	.	.	.
8D/L	.	16a/LL	.	16ff#\LL	.	8D/L	de-	8a\	de-	8ff#\L	de-
.	.	16a/	.	16aa\	.	.	.	.	.	.	.
8C#/	.	16a/	.	16ee\	.	8C#/J	.	8g\	-co-	8ee\J	-co-
.	.	16a/JJ	.	16aa\JJ	.	.	.	.	.	.	.
8BB/	.	16g#X/LL	.	16dd\LL	.	8BB/L	-co-	8a\	-ra-	8dd\L	-ra-
.	.	16e/	.	16aa\	.	.	.	.	.	.	.
!	!	!	!	!	!	!	!	!LO:TX:a:t=problem: brak jednej ósemki	!	!	!
8AA/J	.	16e/	.	16cc#\	.	8AA/J	.	8ryy	.	8cc#\J	.
.	.	16e/JJ	.	16aa\JJ	.	.	.	.	.	.	.
=43	=43	=43	=43	=43	=43	=43	=43	=43	=43	=43	=43
!	!	!LO:TX:a:t=SIC:s=16g#	!	!	!	!	!	!	!	!	!
8E\L	#	16gX/LL	.	16b/LL	.	4.E\,	-ra-	4.g#X\	-tus	4.b\	-tus
.	.	16g/	.	16e/	.	.	.	.	.	.	.
8E\	.	16g/	.	16e/	.	.	.	.	.	.	.
.	.	16g/JJ	.	16e/JJ	.	.	.	.	.	.	.
8E\	.	16g/LL	.	16b/LL	.	.	.	.	.	.	.
.	.	16g/	.	16e/	.	.	.	.	.	.	.
8E\J	.	16g/	.	16e/	.	8E\	-tus,	8g#\	Am-	8b\	An-
.	.	16g/JJ	.	16e/JJ	.	.	.	.	.	.	.
8A\L	.	16a/LL	.	(16cc#\LL	.	8A\	.	8e\	-ge-	(16dd\LL	-ge-
.	.	16a/	.	16a\)	.	.	.	.	.	16b\)	.
8G#X\	6	16b/	.	(16dd\	.	8G#X\	An-	(8b\	.	(16ee\	.
.	.	16b/JJ	.	16b\JJ)	.	.	.	.	.	16cc#\JJ)	.
!	!	!	!	!	!	!LO:TX:a:t=problem: mixed beam	!	!	!	!	!
8A\	.	16e/LL	.	16cc#/LL	.	8A\L	-ge-	8a\L	-li-	16dd\LL	.
.	.	16f#/	.	(16a/	.	.	.	.	.	(16b\	.
8D#X\J	.	16f#/	.	16g#X/	.	8D#X/J	-li-	8f#\J)	.	16g#X\)	-li-
.	.	16f#/JJ	.	16a/JJ)	.	.	.	.	.	16a\JJ	.
!	!	!	!	!	!	!	!	!LO:LB:g=original	!	!	!
=44	=44	=44	=44	=44	=44	=44	=44	=44	=44	=44	=44
!	!	!LO:TX:a:t=SIC:s=16g#	!	!	!	!	!	!	!	!	!
8E\L	#	16g/LL	.	16b/LL	.	4.E\	-cis	4.g#X\	-cis	4.b\	-cis
.	.	16g/	.	16e/	.	.	.	.	.	.	.
8E\	.	16g/	.	16e/	.	.	.	.	.	.	.
.	.	16g/JJ	.	16e/JJ	.	.	.	.	.	.	.
8E\	.	16g/LL	.	16b/LL	.	.	.	.	.	.	.
.	.	16g/	.	16e/	.	.	.	.	.	.	.
8E\J	.	16g/	.	16e/	.	8E\	{An-	8g#\	An-	8b\	e-
.	.	16g/JJ	.	16e/JJ	.	.	.	.	.	.	.
!	!	!LO:LB:g=original	!	!	!	!	!	!	!	!	!
8A\L	.	16a/LL	.	16cc#\LL	.	8A\	-ge-	(8e\	-ge-	(16cc#\LL	.
.	.	16a/	.	16a\	.	.	.	.	.	16a\)	.
8G#X\	.	16b/	.	16dd\	.	8G#X\	-li-	8b\)	.	(16dd\	.
.	.	16b/JJ	.	16b\JJ	.	.	.	.	.	16b\JJ)	.
8A\	.	16e/LL	.	16cc#\LL	.	8A\L	-cis	8a\L	-li-	16cc#\LL	.
.	.	16f#/	.	16a\	.	.	.	.	.	(16a\	.
!	!	!	!	!	!	!LO:TX:a:t=problem: mixed beam	!	!	!	!	!
8D#X\J	6 5	16f#/	.	16g#X\	.	8D#X/J	An-	8f#\J	.	16g#X\)	.
.	.	16f#/JJ	.	16a\JJ	.	.	.	.	.	16a\JJ	.
!	!	!	!	!	!	!LO:LB:g=original	!	!	!	!	!
=45	=45	=45	=45	=45	=45	=45	=45	=45	=45	=45	=45
8E\L	#	16g#X/KL	.	16b\KL	.	4.E\	-ge-	4.g#X\	-cis	4.b\	-rat
.	.	8e/	.	8g#X\	.	.	.	.	.	.	.
8E\	.	.	.	.	.	.	.	.	.	.	.
.	.	16g#/Jk	.	16b\Jk	.	.	.	.	.	.	.
8E\	.	16g#/KL	.	16b\KL	.	.	.	.	.	.	.
.	.	8b/	.	8dd\	.	.	.	.	.	.	.
8E\J	.	.	.	.	.	8E\	-li-	8g#\	vir	16ee\LL	.
.	.	16g#/Jk	.	16b\Jk	.	.	.	.	.	16dd\JJ	.
!LO:TX:a:t=problem: mixed beam	!	!LO:TX:a:t=problem: mixed beam	!	!	!	!	!	!	!	!	!
8A\L	.	16e/KL	.	16cc#\LL	.	8A\	-cis}	(8e\L	Do-	16cc#\LL	.
.	.	8cc#\	.	16aa\	.	.	.	.	.	16b\J	.
8D\	6 5	.	.	16ee\	.	8D/	vir	16f#\L	.	8a\J	.
.	.	16a\Jk	.	16cc#\JJ	.	.	.	16g#X\JJ	.	.	.
!	!	!	!	!LO:TX:a:t=t	!	!	!	!	!	!	!
8E\	4	8a/L	.	4b\	.	8.E\	Do-	8a\L)	-mi-	8.bM\	vir
!LO:TX:a:t=problem:niewyraźne cyfrowanie	!	!	!	!	!	!	!	!	!	!	!
8EE/J	.	8g#X/J	.	.	.	.	.	8g#X\J	.	.	.
!	!	!	!	!	!	!	!	!	!	!LO:SIC:l=Do_mi	!
.	.	.	.	.	.	16E\	-mi-	.	.	16b\	Do-
!LO:LB:g=original	!	!	!	!	!	!	!	!	!	!LO:LB:g=original	!
=46	=46	=46	=46	=46	=46	=46	=46	=46	=46	=46	=46
!LO:TX:a:t=problem: mixed beam	!	!	!	!	!	!	!	!	!	!	!
!LO:TX:a:t=Solo	!	!	!	!	!	!	!	!	!	!	!
8A\L	.	8e/L	.	8a\L	f	4AA/	-ni	4e\	-ni	4cc#\	-ni
8AA`/	.	8A/	.	8A/	.	.	.	.	.	.	.
8C#`/	.	8c#/	.	8c#/	.	4r	.	4r	.	4r	.
8E`/J	.	8e/J	.	8e/J	.	.	.	.	.	.	.
!LO:TX:a:t=problem: mixed beam	!	!	!	!LO:LB:g=original	!	!	!	!	!	!	!
8A`\L	.	8A/	.	8A/	.	2r	.	2r	.	2r	.
8AA/	#	4cc#\	.	4ee\	.	.	.	.	.	.	.
8C#/	6	.	.	.	.	.	.	.	.	.	.
8E/J	#	16b\LL	.	16dd\LL	.	.	.	.	.	.	.
.	.	16g#X\JJ	.	16b\JJ	.	.	.	.	.	.	.
=47	=47	=47	=47	=47	=47	=47	=47	=47	=47	=47	=47
!	!	!LO:TX:a:t=problem: mixed beam	!	!	!	!	!	!	!	!	!
8AA/L	.	16e/LL	.	16cc#\LL	.	00r	.	00r	.	0r	.
.	.	16cc#\	.	16ee\	.	.	.	.	.	.	.
8BB/	.	16cc#\	.	16ee\	.	.	.	.	.	.	.
.	.	16cc#\JJ	.	16ee\JJ	.	.	.	.	.	.	.
8C#/	.	16cc#\LL	.	16aa\LL	.	.	.	.	.	.	.
.	.	16cc#\	.	16ee\	.	.	.	.	.	.	.
8AA/J	.	16b\	.	16dd\	.	.	.	.	.	.	.
.	.	16a\JJ	.	16cc#\JJ	.	.	.	.	.	.	.
8BB/L	.	16b\LL	.	16dd\LL	.	.	.	.	.	.	.
.	.	16b\	.	16dd\	.	.	.	.	.	.	.
8AA/	.	16b\	.	16dd\	.	.	.	.	.	.	.
.	.	16b\JJ	.	16dd\JJ	.	.	.	.	.	.	.
8GG#X/	.	16b\LL	.	16bb\LL	.	.	.	.	.	.	.
.	.	16b\	.	16dd\	.	.	.	.	.	.	.
8EE/J	.	16a\	.	16cc#\	.	.	.	.	.	.	.
.	.	16g#X\JJ	.	16b\JJ	.	.	.	.	.	.	.
=48	=48	=48	=48	=48	=48	=48	=48	=48	=48	=48	=48
!	!	!	!	!LO:TX:a:t=problem: brak ozanczeń trioli	!	!	!	!	!	!	!
8AA/L	.	8e/	.	24cc#\LL	.	.	.	.	.	.	.
.	.	.	.	24b\	.	.	.	.	.	.	.
.	.	.	.	24a\JJ	.	.	.	.	.	.	.
8BB/	.	4cc#\	.	4ee\	.	.	.	.	.	.	.
8C#/	.	.	.	.	.	.	.	.	.	.	.
8D/J	.	8a/	.	16dd\LL	.	.	.	.	.	.	.
.	.	.	.	16cc#\JJ	.	.	.	.	.	.	.
!	!	!	!	!LO:TX:a:t=problem: brak ozanczeń trioli	!	!	!	!	!	!	!
8E\L	#	8g#X/L	.	24b/LL	.	.	.	.	.	.	.
.	.	.	.	24a/	.	.	.	.	.	.	.
.	.	.	.	24g#X/JJ	.	.	.	.	.	.	.
8F#\	.	8a/	.	4dd\	.	.	.	.	.	.	.
8G#X\	.	8b/	.	.	.	.	.	.	.	.	.
8E\J	.	8g#/J	.	16cc#\LL	.	.	.	.	.	.	.
.	.	.	.	16b\JJ	.	.	.	.	.	.	.
=49	=49	=49	=49	=49	=49	=49	=49	=49	=49	=49	=49
8A\L	.	8e/L	.	(24cc#\LL	.	.	.	.	.	1r	.
.	.	.	.	24a\	.	.	.	.	.	.	.
.	.	.	.	24cc#\JJ)	.	.	.	.	.	.	.
8A\	.	8e/	.	(24ee\LL	.	.	.	.	.	.	.
.	.	.	.	24cc#\	.	.	.	.	.	.	.
.	.	.	.	24ee\JJ)	.	.	.	.	.	.	.
8D\	.	8f#/	.	16aa\LL	.	.	.	.	.	.	.
.	.	.	.	16cc#\	.	.	.	.	.	.	.
8D\J	.	8f#/J	.	16b\	.	.	.	.	.	.	.
.	.	.	.	16a\JJ	.	.	.	.	.	.	.
!	!	!LO:LB:g=original	!	!	!	!	!	!	!	!	!
!	!	!LO:TX:a:t=problem: mixed beam	!	!	!	!	!	!	!	!	!
8E\L	#	8B/L	.	24g#X/LL	.	.	.	.	.	.	.
.	.	.	.	24e/	.	.	.	.	.	.	.
.	.	.	.	24g#/JJ	.	.	.	.	.	.	.
8E\	.	8B/	.	24b/LL	.	.	.	.	.	.	.
.	.	.	.	24g#/	.	.	.	.	.	.	.
.	.	.	.	24b/JJ	.	.	.	.	.	.	.
8E\	7	8b\	.	16dd\LL	.	.	.	.	.	.	.
.	.	.	.	16b\	.	.	.	.	.	.	.
8E\J	.	8g#X\J	.	16g#X\	.	.	.	.	.	.	.
.	.	.	.	16e\JJ	.	.	.	.	.	.	.
=50	=50	=50	=50	=50	=50	=50	=50	=50	=50	=50	=50
8AA/L	.	8e/L	.	(24cc#\LL	.	.	.	.	.	2r	.
.	.	.	.	24b\	.	.	.	.	.	.	.
.	.	.	.	24a\JJ)	.	.	.	.	.	.	.
8C#/	.	8e/	.	16a/LL	.	.	.	.	.	.	.
.	.	.	.	16a/JJ	.	.	.	.	.	.	.
8BB/	.	8d/	.	16a/LL	.	.	.	.	.	.	.
.	.	.	.	16a/	.	.	.	.	.	.	.
8AA/J	.	8c#/J	.	16a/	.	.	.	.	.	.	.
.	.	.	.	16a/JJ	.	.	.	.	.	.	.
!LO:TX:a:t=problem: mixed beam	!	!	!	!LO:LB:g=original	!	!	!	!	!	!	!
8D\L	.	8f#/L	.	16b\LL	.	.	.	.	.	4r	.
.	.	.	.	16a\	.	.	.	.	.	.	.
8F#\	6	16f#/L	.	16dd\	.	.	.	.	.	.	.
.	.	16g#X/JJ	.	16b\JJ	.	.	.	.	.	.	.
8E\	.	8a/L	.	8.cc#\L	.	.	.	.	.	8r	.
8EE/J	.	8g#/J	.	.	.	.	.	.	.	8b\	E-
.	.	.	.	16b\Jk	.	.	.	.	.	.	.
=51	=51	=51	=51	=51	=51	=51	=51	=51	=51	=51	=51
!LO:TX:a:t=problem:mixed beam	!	!	!	!	!	!	!	!	!	!	!
8AA/L	.	4e/	.	4a/	.	2r	.	2r	.	8ee\	-rat
8A\	.	.	.	.	.	.	.	.	.	16ee\	{E-
.	.	.	.	.	.	.	.	.	.	16ee\	-rat}
8G#X\	.	4r	.	4r	.	.	.	.	.	16ee\LL	vir
.	.	.	.	.	.	.	.	.	.	16dd\JJ	.
8E\J	.	.	.	.	.	.	.	.	.	(16cc#\LL	Do-
.	.	.	.	.	.	.	.	.	.	16b\JJ)	.
!LO:LB:g=original	!	!	!	!	!	!	!	!	!	!	!
8AA/L	.	4r	.	4r	.	4r	.	4r	.	8.cc#\L	-mi-
8BB/	.	.	.	.	.	.	.	.	.	.	.
.	.	.	.	.	.	.	.	.	.	16b\Jk	.
8C#/	.	8r	.	8r	.	8r	.	8r	.	8a\	-ni
!LO:TX:a:t=Tutti	!	!	!	!	!	!	!	!	!	!	!
8AA#X/J	.	8cc#\	.	16ff#\LL	.	8AA#X/	Vul-	8c#/	vul-	16ff#\LL	vul-
.	.	.	.	16ee\JJ	.	.	.	.	.	16ee\JJ	.
=52	=52	=52	=52	=52	=52	=52	=52	=52	=52	=52	=52
8BB/L	-	16f#/LL	.	16dd\LL	.	8BB/	-tu	8f#\	-tu	8dd\	-tu
.	.	16b/	.	16ff#\	.	.	.	.	.	.	.
8C#/	6|	16a#X/	.	16ff#\	.	8C#/	pla-	8e\	pla-	8a#X\	pla-
.	.	16a#/JJ	.	16ff#\JJ	.	.	.	.	.	.	.
8D/	6|	16b\LL	.	16ff#\LL	.	8D/	-ci-	8f#\	-ci-	8b\	-ci-
.	.	16b\	.	16ff#\	.	.	.	.	.	.	.
8AA#X/J	6|	16cc#\	.	16gg\	.	8AA#X/	-do	8g\	-do	8cc#\	-do
.	.	16cc#\JJ	.	16gg\JJ	.	.	.	.	.	.	.
!	!	!	!	!	!	!	!	!LO:LB:g=original	!	!	!
8BB/L	.	16an\LL	.	16cc#\LL	.	8BB/	mo-	8f#\	mo-	8dd\	mo-
.	.	16a\	.	16cc#\	.	.	.	.	.	.	.
8C#/	6|	16dd\	.	16ff#\	.	8C#/	-ri-	8e\	-ri-	8an\	-ri-
.	.	16dd\JJ	.	16ff#\JJ	.	.	.	.	.	.	.
8D/	6|	16b\LL	.	16ff#\LL	.	8D/	-b(us)	8f#\	-b(us)	8b\	-b(us)
.	.	16b\	.	16ff#\	.	.	.	.	.	.	.
8E/J	6 5	16cc#\	.	16gg\	.	8E/	vul-	8g\	vul-	8cc#\	vul,-
.	.	16cc#\JJ	.	16gg\JJ	.	.	.	.	.	.	.
!	!	!	!	!	!	!	!	!	!	!LO:LB:g=original	!
=53	=53	=53	=53	=53	=53	=53	=53	=53	=53	=53	=53
!	!	!	!	!LO:TX:a:t=problem: mixed beam	!	!	!	!	!	!	!
8F#\L	#	16a#X/LL	.	16cc#\LL	.	4F#\	-tu	8c#/	-tu	8a#X\	-tu
.	.	16a#/	.	16f#/	.	.	.	.	.	.	.
8Gn\	.	16b/	.	16f#/	.	.	.	8r	.	8r	.
.	.	16b/JJ	.	16f#/JJ	.	.	.	.	.	.	.
!	!	!	!	!LO:TX:a:t=problem: mixed beam	!	!	!	!	!	!	!
8A#X\	6	16cc#\LL	.	16f#/LL	.	8r	.	8r	.	8r	.
.	.	16cc#\	.	16ff#\	.	.	.	.	.	.	.
8B\J	.	16dd\	.	16gg\	.	8B\	e-	8d\	e-	16gg\LL	e-
.	.	16dd\JJ	.	16ff#\JJ	.	.	.	.	.	16ff#\JJ	.
!LO:TX:a:t=problem: mixed beam	!	!	!	!	!	!	!	!	!	!	!
8G\L	6	16b/LL	.	16ee\LL	.	8G\	-rat	8B/	-rat	8ee\	-rat
.	.	16b/	.	16gg\	.	.	.	.	.	.	.
8E\	6	16g/	.	16ff#\	.	16F#\	Be-	8g\	Be-	16dd\	.
.	.	16g/JJ	.	16ee\JJ	.	16E\	-ne	.	.	16cc#\	Be-
!	!	!	!	!	!	!LO:LB:g=original	!	!	!	!	!
!	!	!	!	!	!	!LO:TX:a:t=problem: mixed beam	!	!	!	!	!
8F#\	4	16b/LL	.	16ff#\LL	.	8F#\L	di-	8f#\	-ne-	(8.dd\	-ne-
.	.	16b/	.	16ee\	.	.	.	.	.	.	.
8FF#/J	#	16b/	.	16dd\	.	8FF#/J	.	8e\	-di-	.	.
.	.	16an/JJ	.	16cc#\JJ	.	.	.	.	.	16cc#\)	-di-
=54	=54	=54	=54	=54	=54	=54	=54	=54	=54	=54	=54
8BB/L	-	16b\LL	.	16dd\LL	.	4BB/	-ctus	4f#\	-ctus	4b\	-ctus
.	.	16dd\	.	16ff#\	.	.	.	.	.	.	.
8D/	6	16dd\	.	16ff#\	.	.	.	.	.	.	.
.	.	16dd\JJ	.	16ff#\JJ	.	.	.	.	.	.	.
8E/	6 4	16dd\LL	.	16ff#\LL	.	4r	.	4r	.	4r	.
.	.	16cc#\	.	16ee\	.	.	.	.	.	.	.
8F#/J	#	16b\	.	16dd\	.	.	.	.	.	.	.
.	.	16an\JJ	.	16cc#\JJ	.	.	.	.	.	.	.
!LO:TX:a:t=Solo	!	!	!	!	!	!	!	!	!	!	!
!LO:TX:a:t=problem: mixed beam	!	!LO:LB:g=original	!	!	!	!	!	!	!	!	!
16BB/LL	.	16b\LL	.	16dd\LL	.	2r	.	2r	.	2r	.
16B\	.	16b\	.	16dd\	.	.	.	.	.	.	.
16B\	.	16b\	.	16dd\	.	.	.	.	.	.	.
16B\JJ	.	16b\JJ	.	16dd\JJ	.	.	.	.	.	.	.
16B\LL	.	16b\LL	.	16dd\LL	.	.	.	.	.	.	.
16A\	.	16b\	.	16dd\	.	.	.	.	.	.	.
16G\	.	16b\	.	16dd\	.	.	.	.	.	.	.
16F#\JJ	.	16b\JJ	.	16dd\JJ	.	.	.	.	.	.	.
!	!	!	!	!LO:LB:g=original	!	!	!	!	!	!	!
=55	=55	=55	=55	=55	=55	=55	=55	=55	=55	=55	=55
8E\L	.	16g/LL	.	16ee\LL	.	0r	.	0r	.	0r	.
.	.	16b/	.	16ee\	.	.	.	.	.	.	.
8G\	6	16b/	.	16ee\	.	.	.	.	.	.	.
.	.	16b/JJ	.	16ee\JJ	.	.	.	.	.	.	.
8G\	.	16b/LL	.	16ee\LL	.	.	.	.	.	.	.
.	.	16b/	.	16dd\	.	.	.	.	.	.	.
8G\J	.	16b/	.	16cc#\	.	.	.	.	.	.	.
.	.	16b/JJ	.	16b\JJ	.	.	.	.	.	.	.
!LO:TX:a:t=problem: mixed beam	!	!	!	!	!	!	!	!	!	!	!
8A\L	.	8cc#\L	.	16cc#\LL	.	.	.	.	.	.	.
.	.	.	.	16aa\	.	.	.	.	.	.	.
8C#/	6	8ee\	.	16aa\	.	.	.	.	.	.	.
.	.	.	.	16aa\JJ	.	.	.	.	.	.	.
8C#/	.	8ee\	.	16aa\LL	.	.	.	.	.	.	.
.	.	.	.	16gg\	.	.	.	.	.	.	.
8C#/J	.	8ee\J	.	16ff#\	.	.	.	.	.	.	.
.	.	.	.	16ee\JJ	.	.	.	.	.	.	.
=56	=56	=56	=56	=56	=56	=56	=56	=56	=56	=56	=56
8D\L	.	8a\L	.	(16ff#\LL	.	.	.	.	.	.	.
.	.	.	.	16dd\)	.	.	.	.	.	.	.
8E\	.	8cc#\	.	(16gg\	.	.	.	.	.	.	.
.	.	.	.	16ee\JJ)	.	.	.	.	.	.	.
8F#\	.	8a\	.	16ff#\LL	.	.	.	.	.	.	.
.	.	.	.	16dd\	.	.	.	.	.	.	.
8G\J	.	8b\J	.	16cc#\	.	.	.	.	.	.	.
.	.	.	.	16dd\JJ	.	.	.	.	.	.	.
!LO:LB:g=original	!	!	!	!	!	!	!	!	!	!	!
!LO:TX:a:t=problem:mixed beam	!	!	!	!	!	!	!	!	!	!	!
8A\L	.	8cc#\	.	16ee\LL	.	.	.	.	.	.	.
.	.	.	.	16a\	.	.	.	.	.	.	.
8B\	6	4dd\	.	16gg\	.	.	.	.	.	.	.
.	.	.	.	16ee\JJ	.	.	.	.	.	.	.
8A\	.	.	.	8.ff#\L	.	.	.	.	.	.	.
8AA/J	.	8cc#\	.	.	.	.	.	.	.	.	.
.	.	.	.	16ee\Jk	.	.	.	.	.	.	.
=57	=57	=57	=57	=57	=57	=57	=57	=57	=57	=57	=57
!	!	!	!	!LO:TX:a:t=problem: mixed beam	!	!	!	!	!	!	!
8D\L	.	8a/L	.	8dd\L	.	2r	.	2r	.	2r	.
8D`\	.	8d/	.	8d/	.	.	.	.	.	.	.
8F#`\	.	8f#/	.	8f#/	.	.	.	.	.	.	.
8A`\J	.	8a/J	.	8a/J	.	.	.	.	.	.	.
!LO:TX:a:t=problem: mixed beam	!	!LO:TX:a:t=problem: mixed beam	!	!LO:TX:a:t=problem: mixed beam	!	!	!	!	!	!	!
8d`\L	.	8dd\L	.	8dd\L	.	4r	.	4r	.	4r	.
8D`/	.	8d/	.	8d/	.	.	.	.	.	.	.
8F#/	.	8f#/	.	8f#/	.	8r	.	8r	.	8r	.
8A`/J	.	8a/J	.	8a/J	.	8A\	ut	8a\	ut	8a\	ut
=58	=58	=58	=58	=58	=58	=58	=58	=58	=58	=58	=58
!LO:TX:a:t=Tutti	!	!	!	!	!	!	!	!	!	!	!
8D\L	.	16d/LL	.	16f#/LL	.	8D/	{ut	8f#\	{ut	8a\	{ut
.	.	16d/	.	16f#/	.	.	.	.	.	.	.
8D\	.	16d/	.	16d/	.	16D/	ut}	16f#\	ut}	16a\	ut}
.	.	16d/JJ	.	16d/JJ	.	16D/	in	16f#\	in-	16a\	in
8D\	.	16f#/LL	.	16f#/LL	.	8D/	ter-	8f#\	-ter-	8a\	ter-
.	.	16f#/	.	16f#/	.	.	.	.	.	.	.
8D\J	.	16a/	.	16a/	.	8D/	-ris	8f#\	-ris	8a\	-ris
.	.	16a/JJ	.	16a/JJ	.	.	.	.	.	.	.
8D\L	.	16f#/LL	.	16f#/LL	.	4D/	{ter-	(16d\LL	po-	16f#/LL	po-
.	.	16f#/	.	16f#/	.	.	.	16e\JJ	.	16g/JJ	.
8D\	.	16d/	.	16d/	.	.	.	4f#\	.	4a\	.
.	.	16d/JJ	.	16d/JJ	.	.	.	.	.	.	.
8D\	.	16f#/LL	.	16f#/LL	.	4D/	-ris	.	.	.	.
.	.	16f#/	.	16f#/	.	.	.	.	.	.	.
8D\J	6 4	16g/	.	16g/	.	.	.	8g\)	.	8b\	.
.	.	16g/JJ	.	16g/JJ	.	.	.	.	.	.	.
!	!	!	!	!	!	!	!	!LO:LB:g=original	!	!LO:LB:g=original	!
=59	=59	=59	=59	=59	=59	=59	=59	=59	=59	=59	=59
8D\L	7 5	16f#/LL	.	16f#/LL	.	4D/	ter-	16f#\LL	.	16a\LL	.
.	.	16f#/	.	16f#/	.	.	.	16g\JJ	.	16b\JJ	.
8D\	.	16d/	.	16d/	.	.	.	4a\	.	4cc-X\	.
.	.	16d/JJ	.	16d/JJ	.	.	.	.	.	.	.
8D\	.	16a/LL	.	16a/LL	.	4D/	-ris	.	.	.	.
.	.	16a/	.	16a/	.	.	.	.	.	.	.
8D\J	.	16g/	.	16g/	.	.	.	16g\LL	.	16b\LL	.
.	.	16f#/JJ	.	16f#/JJ	.	.	.	16f#\JJ	.	16a\JJ	.
!	!	!LO:LB:g=original	!	!LO:LB:g=original	!	!	!	!	!	!	!
8D\L	6 4	16g/LL	.	16g/LL	.	4D/	ter-	16g\LL	.	16b\LL	.
.	.	16d/	.	16g/	.	.	.	16a\JJ	.	16cc-\JJ	.
8D\	.	16d/	.	16d/	.	.	.	4b\	.	4dd\	.
.	.	16d/JJ	.	16d/JJ	.	.	.	.	.	.	.
8D\	.	16b/LL	.	16b/LL	.	4D/	-ris	.	.	.	.
.	.	16b/	.	16b/	.	.	.	.	.	.	.
8D\J	.	16a/	.	16a/	.	.	.	16a\LL	.	16cc-\LL	.
.	.	16g/JJ	.	16g/JJ	.	.	.	16g\JJ	.	16b\JJ	.
=60	=60	=60	=60	=60	=60	=60	=60	=60	=60	=60	=60
8D\L	7- 5 3	16a/LL	.	16a/LL	.	4D/	ter-	16f#\LL	.	16a\LL	.
.	.	16d/	.	16d/	.	.	.	16g\JJ	.	16b\JJ	.
8D\	.	16d/	.	16d/	.	.	.	4a\	.	4cc-X\	.
.	.	16d/JJ	.	16d/JJ	.	.	.	.	.	.	.
8D\	.	16d/LL	.	16d/LL	.	4D/	-ris	.	.	.	.
.	.	16d/	.	16d/	.	.	.	.	.	.	.
8D\J	.	16d/	.	16d/	.	.	.	16g\LL	.	16b\LL	.
.	.	16d/JJ	.	16d/JJ	.	.	.	16f#\JJ	.	16a\JJ	.
!	!	!LO:TX:a:t=problem: mixed beam	!	!	!	!	!	!	!	!	!
8D\L	8 6 4	16b\LL	.	16b\LL	.	4D/	ter-	16g\LL	.	16b\LL	.
.	.	16d/	.	16d/	.	.	.	16a\JJ	.	16dd\JJ	.
8D\	.	16d/	.	16d/	.	.	.	4b\	.	4gg\	.
.	.	16d/JJ	.	16d/JJ	.	.	.	.	.	.	.
8D\	.	16d/LL	.	16d/LL	.	4D/	-ris	.	.	.	.
.	.	16d/	.	16d/	.	.	.	.	.	.	.
8D\J	.	16d/	.	16d/	.	.	.	16a\LL	.	16dd\LL	.
.	.	16d/JJ	.	16d/JJ	.	.	.	16g\JJ	.	16b\JJ	.
!	!	!	!	!	!	!LO:LB:g=original	!	!	!	!	!
=61	=61	=61	=61	=61	=61	=61	=61	=61	=61	=61	=61
!	!	!LO:TX:a:t=problem: mixed beam	!	!LO:TX:a:t=problem: mixed beam	!	!	!	!	!	!	!
8D\L	7-: 5: 3:	16cc-X\LL	.	16cc-X\LL	.	4D/	ter-	16f#\LL	.	16a\LL	.
.	.	16d/	.	16d/	.	.	.	16g\JJ	.	16cc-X\JJ	.
8D\	.	16d/	.	16d/	.	.	.	4a\	.	4ff#\	.
.	.	16d/JJ	.	16d/JJ	.	.	.	.	.	.	.
8D\	.	16d/LL	.	16d/LL	.	4D/	-ris	.	.	.	.
.	.	16d/	.	16d/	.	.	.	.	.	.	.
8D\J	.	16d/	.	16d/	.	.	.	16a\LL	.	16cc-\LL	.
.	.	16d/JJ	.	16d/JJ	.	.	.	16f#\JJ	.	16a\JJ	.
!LO:TX:a:t=problem: mixed beam	!	!	!	!	!	!	!	!	!	!	!
8G\L	.	16b\LL	.	16b\LL	.	16G\	po-	16g\	.	8b\	-si-
.	.	16g\	.	16g\	.	16GG/	-si-	16d\	-si-	.	.
!	!	!	!	!	!	!	!	!LO:TX:a:t=SIC:l:s=-tus	!	!	!
.	.	.	.	.	.	.	.	.	.	16qqa/	.
16GG/L	.	16dd\	.	16dd\	.	8GG/	-tus	8d\	-ta	8g\	-tus
16AA/JJ	.	16b\JJ	.	16b\JJ	.	.	.	.	.	.	.
!	!	!	!	!LO:TX:a:t=problem: mixed beam	!	!	!	!	!	!	!
8BB/L	6	8gg\L	.	8gg\L	.	8r	.	8r	.	8r	.
8E/J	#	16dd\L	.	16b/L	.	8E\	ut	8g#X\	ut	8b\	ut
.	.	16cc-\JJ	.	16a/JJ	.	.	.	.	.	.	.
=62	=62	=62	=62	=62	=62	=62	=62	=62	=62	=62	=62
!	!	!	!	!	!	!	!	!LO:TX:a:t=SIC:s=8gg#	!	!	!
8E\L	#:	16b/LL	.	16g#X/LL	.	8E\	{ut	8g\	{ut	8b\	{ut
.	.	16e/	.	16e/	.	.	.	.	.	.	.
8E\	.	16e/	.	16e/	.	16E\	ut}	16g\	ut}	16b\	ut}
.	.	16e/JJ	.	16e/JJ	.	16E\	in	16g\	in	16b\	in
8E\	.	16g#X/LL	.	16g#/LL	.	8E\	ter-	8g\	ter-	8b\	ter-
.	.	16g#/	.	16g#/	.	.	.	.	.	.	.
8E\J	.	16b/	.	16b/	.	8E\	-ris	8g\	-ris	8b\	-ris
.	.	16b/JJ	.	16b/JJ	.	.	.	.	.	.	.
!LO:LB:g=original	!	!	!	!	!	!	!	!	!	!LO:LB:g=original	!
8E\L	#	16g#X/LL	.	16g#X/LL	.	4E\	{ter-	(16d\LL	po-	16g#X\LL	po
.	.	16g#/	.	16g#/	.	.	.	16e\JJ	.	16a\JJ	.
8E\	.	16e/	.	16e/	.	.	.	4g#X\	.	4b\	.
.	.	16e/JJ	.	16e/JJ	.	.	.	.	.	.	.
8E\	.	16g#/LL	.	16g#/LL	.	4E\	-ris	.	.	.	.
.	.	16g#/	.	16g#/	.	.	.	.	.	.	.
8E\J	6 4	16a/	.	16a/	.	.	.	8a\)	.	8cc#\	.
.	.	16a/JJ	.	16a/JJ	.	.	.	.	.	.	.
!	!	!	!	!	!	!	!	!LO:LB:g=original	!	!	!
=63	=63	=63	=63	=63	=63	=63	=63	=63	=63	=63	=63
8E\L	7: 5:	16g#X/LL	.	16g#X/LL	.	1E	ter-	16g#X\LL	.	16b\LL	.
.	.	16g#/	.	16g#/	.	.	.	16a\JJ	.	16cc#\JJ	.
8E\	.	16e/	.	16e/	.	.	.	4b\	.	4dd\	.
.	.	16e/JJ	.	16e/JJ	.	.	.	.	.	.	.
8E\	.	16b/LL	.	16b/LL	.	.	.	.	.	.	.
.	.	16b/	.	16b/	.	.	.	.	.	.	.
8E\J	.	16a/	.	16a/	.	.	.	16a\LL	.	16cc#\LL	.
.	.	16g#X/JJ	.	16g#X/JJ	.	.	.	16g#\JJ	.	16b\JJ	.
!	!	!LO:LB:g=original	!	!LO:LB:g=original	!	!	!	!	!	!	!
8E\L	6: 4:	16a/LL	.	16a/LL	.	.	.	16a\LL	.	16cc#\LL	.
.	.	16a/	.	16a/	.	.	.	16b\JJ	.	16dd\JJ	.
8E\	.	16e/	.	16e/	.	.	.	4cc#\	.	4ee\	.
.	.	16e/JJ	.	16e/JJ	.	.	.	.	.	.	.
8E\	.	16cc#\LL	.	16cc#\LL	.	.	.	.	.	.	.
.	.	16cc#\	.	16cc#\	.	.	.	.	.	.	.
8E\J	.	16b\	.	16b\	.	.	.	16b\LL	.	16dd\LL	.
.	.	16a\JJ	.	16a\JJ	.	.	.	16a\JJ	.	16cc#\JJ	.
=64	=64	=64	=64	=64	=64	=64	=64	=64	=64	=64	=64
!	!	!	!	!LO:TX:a:t=problem: mixed beam	!	!	!	!	!	!	!
8E\L	7: 5:	16b/LL	.	16b\LL	.	1E	-ris}	16g#X\LL	.	16b\LL	.
.	.	16e/	.	16e/	.	.	.	16a\JJ	.	16cc#\JJ	.
8E\	.	16e/	.	16e/	.	.	.	4b\	.	4dd\	.
.	.	16e/JJ	.	16e/JJ	.	.	.	.	.	.	.
8E\	.	16e/LL	.	16e/LL	.	.	.	.	.	.	.
.	.	16e/	.	16e/	.	.	.	.	.	.	.
8E\J	.	16e/	.	16e/	.	.	.	16a\LL	.	16cc#\LL	.
.	.	16e/JJ	.	16e/JJ	.	.	.	16g#\JJ	.	16b\JJ	.
!	!	!LO:TX:a:t=problem:mixed beam	!	!LO:TX:a:t=problem: mixed beam	!	!	!	!	!	!	!
8E\L	6: 4:	16cc#\LL	.	16cc#\LL	.	.	.	16a\LL	.	16cc#\LL	.
.	.	16e/	.	16e/	.	.	.	16cc#\JJ	.	16ee\JJ	.
8E\	.	16e/	.	16e/	.	.	.	4cc#\	.	4aa\	.
.	.	16e/JJ	.	16e/JJ	.	.	.	.	.	.	.
8E\	.	16e/LL	.	16e/LL	.	.	.	.	.	.	.
.	.	16e/	.	16e/	.	.	.	.	.	.	.
8E\J	.	16e/	.	16e/	.	.	.	16cc#\LL	.	16ee\LL	.
.	.	16e/JJ	.	16e/JJ	.	.	.	16a\JJ	.	16cc#\JJ	.
=65	=65	=65	=65	=65	=65	=65	=65	=65	=65	=65	=65
!	!	!LO:TX:a:t=problem: mixed beam	!	!LO:TX:a:t=problem: mixed beam	!	!	!	!	!	!	!
8E\L	7: 5:	16dd\LL	.	16dd\LL	.	(2E\	po-	16g#X\LL	.	16b\LL	.
.	.	16e/	.	16e/	.	.	.	16a\JJ	.	16dd\JJ	.
8E\	.	16e/	.	16e/	.	.	.	4b\	.	4gg#X\	.
.	.	16e/JJ	.	16e/JJ	.	.	.	.	.	.	.
8E\	.	16e/LL	.	16e/LL	.	.	.	.	.	.	.
.	.	16e/	.	16e/	.	.	.	.	.	.	.
8E\J	.	16e/	.	16e/	.	.	.	16b\LL	.	16dd\LL	.
.	.	16e/JJ	.	16e/JJ	.	.	.	16g#\JJ	.	16b\JJ	.
!LO:TX:a:t=problem: mixed beam	!	!	!	!	!	!	!	!	!	!	!
8A\L	.	16cc#\LL	.	16cc#\LL	.	16A\)	-si-	16a\	.	16cc#\	si-
.	.	16a\	.	16a\	.	16AA/	.	16e\	-si-	16b/	-tus
!	!	!	!	!	!	!	!	!LO:TX:a:t=SIC:l:s=-tus	!	!	!
16AA/L	.	16ee\	.	16ee\	.	8AA/	-tus	8e\	-ta	8a\	.
16BB/JJ	.	16cc#\JJ	.	16cc#\JJ	.	.	.	.	.	.	.
!	!	!LO:TX:a:t=problem: mixed beam	!	!LO:TX:a:t=problem: mixed beam	!	!	!	!	!	!	!
8C#/L	.	16aa\LL	.	16aa\LL	.	8r	.	8r	.	8r	.
.	.	16a/	.	16a/	.	.	.	.	.	.	.
8AA/J	.	16a/	.	16a/	.	8A\	in	8a\	in	8ee\	in
.	.	16a/JJ	.	16a/JJ	.	.	.	.	.	.	.
!	!	!	!	!	!	!LO:LB:g=original	!	!	!	!	!
=66	=66	=66	=66	=66	=66	=66	=66	=66	=66	=66	=66
8AA/L	.	16cc#\LL	.	16cc#\LL	.	8A\	cae-	8a\	cae-	8cc#\,	cae-
.	.	16a\	.	16a\	.	.	.	.	.	.	.
8BB/	.	16dd\	.	16dd\	.	8B\	-lis-	8a\	-lis	8dd\	-lis
.	.	16a\JJ	.	16a\JJ	.	.	.	.	.	.	.
8C#/	.	16ee\LL	.	16ee\LL	.	8c#\	-ha-	8a\	ha-	8ee\	ha-
.	.	16a\	.	16a\	.	.	.	.	.	.	.
8D/J	.	16ff#\	.	16ff#\	.	8d\	-bi-	8a\	-bi-	16ff#\LL	-bi-
.	.	16a\JJ	.	16a\JJ	.	.	.	.	.	16dd\JJ	.
!	!	!	!	!LO:TX:a:t=problem: mixed beam	!	!	!	!	!	!LO:LB:g=original	!
8AA/L	.	16cc#\LL	.	16ee\LL	.	4A\	-ta	8a\	-ta	4ee\	-ta
.	.	16a\	.	16a/	.	.	.	.	.	.	.
16AA/L	.	16a\	.	16a/	.	.	.	8r	.	.	.
16BB/JJ	.	16a\JJ	.	16a/JJ	.	.	.	.	.	.	.
!	!	!	!	!LO:TX:a:t=problem: mixed beam	!	!	!	!	!	!	!
8C#/L	.	16a\LL	.	16a/LL	.	8r	.	8r	.	8r	.
.	.	16dd\	.	16gg\	.	.	.	.	.	.	.
8AA/J	.	16dd\	.	16gg\	.	8c#\	in	8a\	in	8gg\	in
.	.	16dd\JJ	.	16gg\JJ	.	.	.	.	.	.	.
!	!	!	!	!	!	!	!	!LO:LB:g=original	!	!	!
=67	=67	=67	=67	=67	=67	=67	=67	=67	=67	=67	=67
!LO:TX:a:t=problem: mixed beam	!	!	!	!	!	!	!	!	!	!	!
8D\L	.	16a/LL	.	16ff#\LL	.	16d\	cae-	8a\	ca-	8ff#\	cae-
.	.	16a/	.	16dd\	.	16d\	-lis	.	.	.	.
8G\	.	16b/	.	16dd\	.	16G\	ha-	16b\	-lis	16ee\	-lis
!	!	!	!	!	!	!	!	!LO:N:vis=8	!	!	!
.	.	16b/JJ	.	16dd\JJ	.	16G\	-bi-	16b\JJ	ha-	16dd\	ha-
8A\	.	16g/LL	.	16ee\LL	.	8A\L	-ta-	8f#\L	-bi-	8.dd\	-bi-
.	.	16g/	.	16cc#\	.	.	.	.	.	.	.
!	!	!	!	!	!	!LO:TX:a:t=problem: mixed beam	!	!	!	!	!
8AA/J	.	16g/	.	16cc#\	.	8AA/J	.	8e\J	-ta-	.	.
.	.	16g/JJ	.	16cc#\JJ	.	.	.	.	.	16cc#\	-ta-
!	!	!	!	!LO:LB:g=original	!	!	!	!	!	!	!
!	!	!LO:LB:g=original	!	!LO:TX:a:t=problem:mixed beam	!	!	!	!	!	!	!
16D\LL	.	16f#/LL	.	16dd\LL	.	4D/	-ret	8f#\	-ret	4dd\	-ret
16D\	.	16d/	.	16d/	.	.	.	.	.	.	.
16D\	.	16d/	.	16d/	.	.	.	8r	.	.	.
16D\JJ	.	16d/JJ	.	16d/JJ	.	.	.	.	.	.	.
16F#\LL	.	16f#/LL	.	16f#/LL	.	8r	.	8r	.	8r	.
16F#\	.	16f#/	.	16f#/	.	.	.	.	.	.	.
16A\	.	16a/	.	16a/	.	16A\	ut	16a\LL	ut-	16ff#\	ut
16A\JJ	.	16a/JJ	.	16a/JJ	.	16A\	in	16a\JJ	-in	16ee\	in
!LO:LB:g=original	!	!	!	!	!	!	!	!	!	!	!
=68	=68	=68	=68	=68	=68	=68	=68	=68	=68	=68	=68
8D\L	.	16f#/LL	.	16dd\LL	.	8d\	ter-	8a\	ter-	8ff#\	ter-
.	.	16f#/	.	16ff#\	.	.	.	.	.	.	.
8G\	.	16b/	.	16dd\	.	8D/	-ris	8a\	-ris	8dd\	-ris
.	.	16b/JJ	.	16dd\JJ	.	.	.	.	.	.	.
!	!	!LO:TX:a:t=problem: mixed beam	!	!	!	!	!	!	!	!	!
8A\	.	16e/LL	.	16cc#\LL	.	8A\	po-	8e\	po-	8cc#\	po-
.	.	16e/	.	16ee\	.	.	.	.	.	.	.
8B\J	6	16dd\	.	16gg\	.	8B\	-si-	8b\	-si-	8dd\	-ſi-
.	5	16dd\JJ	.	16ff#\JJ	.	.	.	.	.	.	.
!LO:TX:a:t=problem: mixed beam	!	!	!	!LO:TX:a:t=problem: mixed beam	!	!	!	!	!	!	!
8A\L	.	8cc#\L	.	16ee\LL	.	4.A\	-tus	4.cc#\	-tus,	4.ee\,	-tus,
.	.	.	.	16a/	.	.	.	.	.	.	.
16AA/L	.	16cc#\L	.	16a/	.	.	.	.	.	.	.
16BB/JJ	.	16dd\JJ	.	16a/JJ	.	.	.	.	.	.	.
!	!	!	!	!LO:TX:a:t=problem: mixed beam	!	!	!	!	!	!	!
8C#/L	6	16ee\LL	.	16a/LL	.	.	.	.	.	.	.
.	.	16ee\	.	16gg\	.	.	.	.	.	.	.
8AA/J	.	16cc#\	.	16gg\	.	8A\	in	8cc#\	in	8gg\	in
.	.	16cc#\JJ	.	16gg\JJ	.	.	.	.	.	.	.
=69	=69	=69	=69	=69	=69	=69	=69	=69	=69	=69	=69
!LO:TX:a:t=problem: mixed beam	!	!	!	!	!	!	!	!	!	!	!
8D\L	.	16a/LL	.	(24ff#\LL	.	16d\	cae-	8a\	cae-	8ff#\	cae-
.	.	.	.	24ee\	.	.	.	.	.	.	.
.	.	16a/	.	.	.	16d\	-li	.	.	.	.
.	.	.	.	24dd\JJ)	.	.	.	.	.	.	.
8G\	.	16b/	.	16dd\LL	.	16G\	ha-	16g\	-lis	16ee\	-lis
.	.	16b/JJ	.	16dd\JJ	.	16G\	-bi-	16f#\	ha-	16dd\	ha-
!	!	!	!	!	!	!LO:TX:a:t=problem: mixed beam	!	!	!	!	!
8A\	.	16f#/LL	.	(24ee\LL	.	8A\L	-ta-	8f#\	-bi-	8.cc#\	-bi-
.	.	.	.	24dd\	.	.	.	.	.	.	.
.	.	16f#/	.	.	.	.	.	.	.	.	.
.	.	.	.	24cc#\)JJ	.	.	.	.	.	.	.
8AA/J	.	16e/	.	16cc#\LL	.	8AA/J	.	8e\	-ta-	.	.
.	.	16e/JJ	.	16cc#\JJ	.	.	.	.	.	16dd\	-ta-
!	!	!	!	!LO:TX:a:t=problem: mixed beam	!	!LO:LB:g=original	!	!	!	!	!
8D\L	.	8f#/L	.	8dd\L	.	8D\	-ret	8f#\	-ret	16dd\	-ret
.	.	.	.	.	.	.	.	.	.	16d/	ha-
8D\	.	8d/	.	8d/	.	8D\	ha-	8d\	ha-	16d/	-bi-
!	!	!	!	!	!	!	!	!	!	!LO:LB:g=original	!
.	.	.	.	.	.	.	.	.	.	16d/	-ta-
8F#\	.	8f#/	.	8f#/	.	8F#\	-bi-	8f#\	-bi-	8f#/	.
8A\J	.	8a/J	.	8a/J	.	8A\	-ta-	8a\	-ta-	8a\	.
=70	=70	=70	=70	=70	=70	=70	=70	=70	=70	=70	=70
!LO:TX:a:t=problem: mixed beam	!	!LO:TX:a:t=problem: mixed beam	!	!LO:TX:a:t=problem: mixed beam	!	!	!	!	!	!	!
16d\LL	.	16dd\LL	.	16dd\LL	.	8D/	-ret	8d\	-ret	8dd\	-ret
16D/	.	16d/	.	16d/	.	.	.	.	.	.	.
16D/	.	16d/	.	16d/	.	8r	.	8r	.	8r	.
16D/JJ	.	16d/JJ	.	16d/JJ	.	.	.	.	.	.	.
16F#\LL	.	16f#/LL	.	16f#/LL	.	4r	.	4r	.	4r	.
16F#\	.	16f#/	.	16f#/	.	.	.	.	.	.	.
16A\	.	16a/	.	16a/	.	.	.	.	.	.	.
16A\JJ	.	16a/JJ	.	16a/JJ	.	.	.	.	.	.	.
16d\LL	.	16dd\LL	.	16dd\LL	.	2r	.	2r	.	2r	.
16d\	.	16dd\	.	16dd\	.	.	.	.	.	.	.
16A\	.	16a\	.	16a\	.	.	.	.	.	.	.
16A\JJ	.	16a\JJ	.	16a\JJ	.	.	.	.	.	.	.
16F#\LL	.	16f#/LL	.	16f#/LL	.	.	.	.	.	.	.
16F#\	.	16f#/	.	16f#/	.	.	.	.	.	.	.
16D\	.	16d/	.	16d/	.	.	.	.	.	.	.
16D\JJ	.	16d/JJ	.	16d/JJ	.	.	.	.	.	.	.
=71	=71	=71	=71	=71	=71	=71	=71	=71	=71	=71	=71
8r	.	8r	.	4.gg\	.	0r	.	1r	.	0r	.
8AA/L	.	8cc#\L	.	.	.	.	.	.	.	.	.
8BB/	6	8dd\	.	.	.	.	.	.	.	.	.
8C#/J	6	8ee\J	.	16ff#\LL	.	.	.	.	.	.	.
.	.	.	.	16ee\JJ	.	.	.	.	.	.	.
8D\L	.	8a/L	.	8ff#\L	.	.	.	.	.	.	.
8F#\	6	8a/	.	8dd\	.	.	.	.	.	.	.
8G\	6	8b/	.	8ee\	.	.	.	.	.	.	.
8A\J	#	8e/J	.	8cc#\J	.	.	.	.	.	.	.
!LO:LB:g=original	!	!LO:LB:g=original	!	!LO:LB:g=original	!	!	!	!	!	!	!
=72	=72	=72	=72	=72	=72	=72	=72	=72	=72	=72	=72
!	!	!	!	!LO:TX:a:t=problem: mixed beam	!	!	!	!	!	!	!
16d\LL	.	16f#/LL	.	16dd\LL	.	.	.	1r	.	.	.
16D\	.	16d/	.	16d/	.	.	.	.	.	.	.
16D\	.	16d/	.	16d/	.	.	.	.	.	.	.
16D\JJ	.	16d/JJ	.	16d/JJ	.	.	.	.	.	.	.
16F#\LL	.	16f#/LL	.	16f#/LL	.	.	.	.	.	.	.
16F#\	.	16f#/	.	16f#/	.	.	.	.	.	.	.
16A\	.	16a/	.	16a/	.	.	.	.	.	.	.
16A\JJ	.	16a/JJ	.	16a/JJ	.	.	.	.	.	.	.
!	!	!LO:TX:a:t=problem: mixed beam	!	!LO:TX:a:t=problem:mixed beam	!	!	!	!	!	!	!
8D\;;	.	8dd\L	.	8dd\L	.	.	.	.	.	.	.
!	!	!LO:TX:a:t=Volti	!	!	!	!	!	!	!	!	!
8r	.	8d/J;;	.	8d/J;;	.	.	.	.	.	.	.
!LO:TX:a:t=Finis.	!	!	!	!LO:TX:a:t=Volti	!	!	!	!	!	!	!
4r	.	4ryy	.	4r	.	.	.	.	.	.	.
==	==	==	==	==	==	==;;	==	==;;	==	==;;	==
*-	*-	*-	*-	*-	*-	*-	*-	*-	*-	*-	*-
!!!system-decoration: [(g1)][(g2)]{g3}
!!!RDF**kern: >= above
!!!RDF**kern:: <= below
!!!RDF**dynam: p=po
!!!RDF**dynam:f=fo.
!!!ENC:Anna Matuszewska
!!!END:2020-07-24
